( Generated by rastercarve: github.com/built1n/rastercarve )
( Image name: baby_yoda_meme-e1574093910856.jpeg )
N1 G00 G90 G80 G28 G17 G20 G40 G49

N2 G0 X0.000000 Y0.000000 Z0.200000
N3 G1 F10 Z0.200000
N4 G0 X0.000000 Y-0.000000
N5 G1 F10 X0.000000 Y-0.000000 Z-0.038125
N6 G1 F10 Z0.200000
N7 G0 X0.265529 Y-0.000000
N8 G1 F10 X0.265529 Y-0.000000 Z-0.042188
N9 G1 F100 X0.256290 Y-0.003827 Z-0.042188
N10 G1 F100 X0.247052 Y-0.007654 Z-0.042188
N11 G1 F100 X0.237813 Y-0.011481 Z-0.042188
N12 G1 F100 X0.228574 Y-0.015307 Z-0.040313
N13 G1 F100 X0.219335 Y-0.019134 Z-0.040625
N14 G1 F100 X0.210096 Y-0.022961 Z-0.040625
N15 G1 F100 X0.200858 Y-0.026788 Z-0.040938
N16 G1 F100 X0.191619 Y-0.030615 Z-0.041250
N17 G1 F100 X0.182380 Y-0.034442 Z-0.041563
N18 G1 F100 X0.173141 Y-0.038268 Z-0.040313
N19 G1 F100 X0.163903 Y-0.042095 Z-0.039062
N20 G1 F100 X0.154664 Y-0.045922 Z-0.039375
N21 G1 F100 X0.145425 Y-0.049749 Z-0.038750
N22 G1 F100 X0.136186 Y-0.053576 Z-0.038125
N23 G1 F100 X0.126947 Y-0.057403 Z-0.037812
N24 G1 F100 X0.117709 Y-0.061229 Z-0.037812
N25 G1 F100 X0.108470 Y-0.065056 Z-0.037812
N26 G1 F100 X0.099231 Y-0.068883 Z-0.037812
N27 G1 F100 X0.089992 Y-0.072710 Z-0.037500
N28 G1 F100 X0.080753 Y-0.076537 Z-0.037187
N29 G1 F100 X0.071515 Y-0.080364 Z-0.036875
N30 G1 F100 X0.062276 Y-0.084190 Z-0.037187
N31 G1 F100 X0.053037 Y-0.088017 Z-0.037812
N32 G1 F100 X0.043798 Y-0.091844 Z-0.039062
N33 G1 F100 X0.034559 Y-0.095671 Z-0.040313
N34 G1 F100 X0.025321 Y-0.099498 Z-0.041250
N35 G1 F100 X0.016082 Y-0.103325 Z-0.041250
N36 G1 F100 X0.006843 Y-0.107151 Z-0.041250
N37 G1 F10 Z0.200000
N38 G0 X0.000000 Y-0.219972
N39 G1 F10 X0.000000 Y-0.219972 Z-0.043438
N40 G1 F100 X0.009239 Y-0.216145 Z-0.043125
N41 G1 F100 X0.018478 Y-0.212318 Z-0.043125
N42 G1 F100 X0.027716 Y-0.208491 Z-0.043750
N43 G1 F100 X0.036955 Y-0.204664 Z-0.044375
N44 G1 F100 X0.046194 Y-0.200837 Z-0.044687
N45 G1 F100 X0.055433 Y-0.197011 Z-0.044687
N46 G1 F100 X0.064672 Y-0.193184 Z-0.044687
N47 G1 F100 X0.073910 Y-0.189357 Z-0.044687
N48 G1 F100 X0.083149 Y-0.185530 Z-0.045000
N49 G1 F100 X0.092388 Y-0.181703 Z-0.044687
N50 G1 F100 X0.101627 Y-0.177876 Z-0.043750
N51 G1 F100 X0.110866 Y-0.174050 Z-0.043125
N52 G1 F100 X0.120104 Y-0.170223 Z-0.043438
N53 G1 F100 X0.129343 Y-0.166396 Z-0.043125
N54 G1 F100 X0.138582 Y-0.162569 Z-0.043438
N55 G1 F100 X0.147821 Y-0.158742 Z-0.043125
N56 G1 F100 X0.157060 Y-0.154915 Z-0.043438
N57 G1 F100 X0.166298 Y-0.151089 Z-0.044687
N58 G1 F100 X0.175537 Y-0.147262 Z-0.042813
N59 G1 F100 X0.184776 Y-0.143435 Z-0.042188
N60 G1 F100 X0.194015 Y-0.139608 Z-0.042188
N61 G1 F100 X0.203253 Y-0.135781 Z-0.043125
N62 G1 F100 X0.212492 Y-0.131954 Z-0.043438
N63 G1 F100 X0.221731 Y-0.128128 Z-0.043750
N64 G1 F100 X0.230970 Y-0.124301 Z-0.043438
N65 G1 F100 X0.240209 Y-0.120474 Z-0.044375
N66 G1 F100 X0.249447 Y-0.116647 Z-0.043750
N67 G1 F100 X0.258686 Y-0.112820 Z-0.043125
N68 G1 F100 X0.267925 Y-0.108993 Z-0.042500
N69 G1 F100 X0.277164 Y-0.105167 Z-0.042500
N70 G1 F100 X0.286403 Y-0.101340 Z-0.042500
N71 G1 F100 X0.295641 Y-0.097513 Z-0.042500
N72 G1 F100 X0.304880 Y-0.093686 Z-0.042500
N73 G1 F100 X0.314119 Y-0.089859 Z-0.042813
N74 G1 F100 X0.323358 Y-0.086032 Z-0.042813
N75 G1 F100 X0.332597 Y-0.082206 Z-0.042500
N76 G1 F100 X0.341835 Y-0.078379 Z-0.042500
N77 G1 F100 X0.351074 Y-0.074552 Z-0.042813
N78 G1 F100 X0.360313 Y-0.070725 Z-0.042500
N79 G1 F100 X0.369552 Y-0.066898 Z-0.041563
N80 G1 F100 X0.378791 Y-0.063071 Z-0.041250
N81 G1 F100 X0.388029 Y-0.059245 Z-0.040625
N82 G1 F100 X0.397268 Y-0.055418 Z-0.040000
N83 G1 F100 X0.406507 Y-0.051591 Z-0.040000
N84 G1 F100 X0.415746 Y-0.047764 Z-0.040000
N85 G1 F100 X0.424985 Y-0.043937 Z-0.040313
N86 G1 F100 X0.434223 Y-0.040110 Z-0.040625
N87 G1 F100 X0.443462 Y-0.036284 Z-0.040313
N88 G1 F100 X0.452701 Y-0.032457 Z-0.040313
N89 G1 F100 X0.461940 Y-0.028630 Z-0.040000
N90 G1 F100 X0.471179 Y-0.024803 Z-0.041875
N91 G1 F100 X0.480417 Y-0.020976 Z-0.041875
N92 G1 F100 X0.489656 Y-0.017149 Z-0.042188
N93 G1 F100 X0.498895 Y-0.013323 Z-0.042813
N94 G1 F100 X0.508134 Y-0.009496 Z-0.043125
N95 G1 F100 X0.517373 Y-0.005669 Z-0.043125
N96 G1 F100 X0.526611 Y-0.001842 Z-0.043125
N97 G1 F10 Z0.200000
N98 G0 X0.792141 Y-0.001842
N99 G1 F10 X0.792141 Y-0.001842 Z-0.043125
N100 G1 F100 X0.782902 Y-0.005669 Z-0.042813
N101 G1 F100 X0.773663 Y-0.009496 Z-0.041563
N102 G1 F100 X0.764424 Y-0.013323 Z-0.041563
N103 G1 F100 X0.755185 Y-0.017149 Z-0.041563
N104 G1 F100 X0.745947 Y-0.020976 Z-0.041250
N105 G1 F100 X0.736708 Y-0.024803 Z-0.041563
N106 G1 F100 X0.727469 Y-0.028630 Z-0.042188
N107 G1 F100 X0.718230 Y-0.032457 Z-0.043438
N108 G1 F100 X0.708991 Y-0.036284 Z-0.043750
N109 G1 F100 X0.699753 Y-0.040110 Z-0.043125
N110 G1 F100 X0.690514 Y-0.043937 Z-0.043438
N111 G1 F100 X0.681275 Y-0.047764 Z-0.044375
N112 G1 F100 X0.672036 Y-0.051591 Z-0.044687
N113 G1 F100 X0.662797 Y-0.055418 Z-0.045000
N114 G1 F100 X0.653559 Y-0.059245 Z-0.045000
N115 G1 F100 X0.644320 Y-0.063071 Z-0.045625
N116 G1 F100 X0.635081 Y-0.066898 Z-0.046875
N117 G1 F100 X0.625842 Y-0.070725 Z-0.047813
N118 G1 F100 X0.616603 Y-0.074552 Z-0.049063
N119 G1 F100 X0.607365 Y-0.078379 Z-0.048750
N120 G1 F100 X0.598126 Y-0.082206 Z-0.048750
N121 G1 F100 X0.588887 Y-0.086032 Z-0.048438
N122 G1 F100 X0.579648 Y-0.089859 Z-0.047813
N123 G1 F100 X0.570410 Y-0.093686 Z-0.047188
N124 G1 F100 X0.561171 Y-0.097513 Z-0.046562
N125 G1 F100 X0.551932 Y-0.101340 Z-0.046250
N126 G1 F100 X0.542693 Y-0.105167 Z-0.045937
N127 G1 F100 X0.533454 Y-0.108993 Z-0.045000
N128 G1 F100 X0.524216 Y-0.112820 Z-0.044375
N129 G1 F100 X0.514977 Y-0.116647 Z-0.044062
N130 G1 F100 X0.505738 Y-0.120474 Z-0.044062
N131 G1 F100 X0.496499 Y-0.124301 Z-0.044062
N132 G1 F100 X0.487260 Y-0.128128 Z-0.043750
N133 G1 F100 X0.478022 Y-0.131954 Z-0.043750
N134 G1 F100 X0.468783 Y-0.135781 Z-0.043750
N135 G1 F100 X0.459544 Y-0.139608 Z-0.042813
N136 G1 F100 X0.450305 Y-0.143435 Z-0.043125
N137 G1 F100 X0.441066 Y-0.147262 Z-0.044687
N138 G1 F100 X0.431828 Y-0.151089 Z-0.046875
N139 G1 F100 X0.422589 Y-0.154915 Z-0.046562
N140 G1 F100 X0.413350 Y-0.158742 Z-0.045937
N141 G1 F100 X0.404111 Y-0.162569 Z-0.045937
N142 G1 F100 X0.394872 Y-0.166396 Z-0.045937
N143 G1 F100 X0.385634 Y-0.170223 Z-0.047188
N144 G1 F100 X0.376395 Y-0.174050 Z-0.045937
N145 G1 F100 X0.367156 Y-0.177876 Z-0.045312
N146 G1 F100 X0.357917 Y-0.181703 Z-0.044687
N147 G1 F100 X0.348678 Y-0.185530 Z-0.044062
N148 G1 F100 X0.339440 Y-0.189357 Z-0.044062
N149 G1 F100 X0.330201 Y-0.193184 Z-0.043438
N150 G1 F100 X0.320962 Y-0.197011 Z-0.043125
N151 G1 F100 X0.311723 Y-0.200837 Z-0.042188
N152 G1 F100 X0.302484 Y-0.204664 Z-0.041875
N153 G1 F100 X0.293246 Y-0.208491 Z-0.042188
N154 G1 F100 X0.284007 Y-0.212318 Z-0.041875
N155 G1 F100 X0.274768 Y-0.216145 Z-0.041563
N156 G1 F100 X0.265529 Y-0.219972 Z-0.041563
N157 G1 F100 X0.256290 Y-0.223798 Z-0.042188
N158 G1 F100 X0.247052 Y-0.227625 Z-0.043125
N159 G1 F100 X0.237813 Y-0.231452 Z-0.043438
N160 G1 F100 X0.228574 Y-0.235279 Z-0.042813
N161 G1 F100 X0.219335 Y-0.239106 Z-0.042500
N162 G1 F100 X0.210096 Y-0.242933 Z-0.042188
N163 G1 F100 X0.200858 Y-0.246759 Z-0.043125
N164 G1 F100 X0.191619 Y-0.250586 Z-0.044062
N165 G1 F100 X0.182380 Y-0.254413 Z-0.044375
N166 G1 F100 X0.173141 Y-0.258240 Z-0.043438
N167 G1 F100 X0.163903 Y-0.262067 Z-0.042188
N168 G1 F100 X0.154664 Y-0.265894 Z-0.042813
N169 G1 F100 X0.145425 Y-0.269720 Z-0.043750
N170 G1 F100 X0.136186 Y-0.273547 Z-0.044062
N171 G1 F100 X0.126947 Y-0.277374 Z-0.044687
N172 G1 F100 X0.117709 Y-0.281201 Z-0.044687
N173 G1 F100 X0.108470 Y-0.285028 Z-0.045312
N174 G1 F100 X0.099231 Y-0.288855 Z-0.045625
N175 G1 F100 X0.089992 Y-0.292681 Z-0.045000
N176 G1 F100 X0.080753 Y-0.296508 Z-0.044375
N177 G1 F100 X0.071515 Y-0.300335 Z-0.044062
N178 G1 F100 X0.062276 Y-0.304162 Z-0.043750
N179 G1 F100 X0.053037 Y-0.307989 Z-0.043750
N180 G1 F100 X0.043798 Y-0.311816 Z-0.043438
N181 G1 F100 X0.034559 Y-0.315642 Z-0.043438
N182 G1 F100 X0.025321 Y-0.319469 Z-0.043438
N183 G1 F100 X0.016082 Y-0.323296 Z-0.043438
N184 G1 F100 X0.006843 Y-0.327123 Z-0.043438
N185 G1 F10 Z0.200000
N186 G0 X0.000000 Y-0.439943
N187 G1 F10 X0.000000 Y-0.439943 Z-0.036250
N188 G1 F100 X0.009239 Y-0.436116 Z-0.036875
N189 G1 F100 X0.018478 Y-0.432290 Z-0.037187
N190 G1 F100 X0.027716 Y-0.428463 Z-0.037187
N191 G1 F100 X0.036955 Y-0.424636 Z-0.036875
N192 G1 F100 X0.046194 Y-0.420809 Z-0.036875
N193 G1 F100 X0.055433 Y-0.416982 Z-0.037500
N194 G1 F100 X0.064672 Y-0.413155 Z-0.037187
N195 G1 F100 X0.073910 Y-0.409329 Z-0.036875
N196 G1 F100 X0.083149 Y-0.405502 Z-0.036562
N197 G1 F100 X0.092388 Y-0.401675 Z-0.036250
N198 G1 F100 X0.101627 Y-0.397848 Z-0.035938
N199 G1 F100 X0.110866 Y-0.394021 Z-0.035313
N200 G1 F100 X0.120104 Y-0.390194 Z-0.035313
N201 G1 F100 X0.129343 Y-0.386368 Z-0.035938
N202 G1 F100 X0.138582 Y-0.382541 Z-0.036250
N203 G1 F100 X0.147821 Y-0.378714 Z-0.035313
N204 G1 F100 X0.157060 Y-0.374887 Z-0.034688
N205 G1 F100 X0.166298 Y-0.371060 Z-0.034375
N206 G1 F100 X0.175537 Y-0.367233 Z-0.034063
N207 G1 F100 X0.184776 Y-0.363407 Z-0.033750
N208 G1 F100 X0.194015 Y-0.359580 Z-0.033750
N209 G1 F100 X0.203253 Y-0.355753 Z-0.034375
N210 G1 F100 X0.212492 Y-0.351926 Z-0.035625
N211 G1 F100 X0.221731 Y-0.348099 Z-0.037187
N212 G1 F100 X0.230970 Y-0.344272 Z-0.037812
N213 G1 F100 X0.240209 Y-0.340446 Z-0.038437
N214 G1 F100 X0.249447 Y-0.336619 Z-0.040000
N215 G1 F100 X0.258686 Y-0.332792 Z-0.040938
N216 G1 F100 X0.267925 Y-0.328965 Z-0.041250
N217 G1 F100 X0.277164 Y-0.325138 Z-0.040938
N218 G1 F100 X0.286403 Y-0.321311 Z-0.040313
N219 G1 F100 X0.295641 Y-0.317485 Z-0.040313
N220 G1 F100 X0.304880 Y-0.313658 Z-0.040938
N221 G1 F100 X0.314119 Y-0.309831 Z-0.040625
N222 G1 F100 X0.323358 Y-0.306004 Z-0.042813
N223 G1 F100 X0.332597 Y-0.302177 Z-0.043438
N224 G1 F100 X0.341835 Y-0.298350 Z-0.044062
N225 G1 F100 X0.351074 Y-0.294524 Z-0.044062
N226 G1 F100 X0.360313 Y-0.290697 Z-0.044375
N227 G1 F100 X0.369552 Y-0.286870 Z-0.045000
N228 G1 F100 X0.378791 Y-0.283043 Z-0.045312
N229 G1 F100 X0.388029 Y-0.279216 Z-0.046250
N230 G1 F100 X0.397268 Y-0.275389 Z-0.047188
N231 G1 F100 X0.406507 Y-0.271563 Z-0.046562
N232 G1 F100 X0.415746 Y-0.267736 Z-0.045937
N233 G1 F100 X0.424985 Y-0.263909 Z-0.045625
N234 G1 F100 X0.434223 Y-0.260082 Z-0.045625
N235 G1 F100 X0.443462 Y-0.256255 Z-0.045000
N236 G1 F100 X0.452701 Y-0.252428 Z-0.044687
N237 G1 F100 X0.461940 Y-0.248602 Z-0.045312
N238 G1 F100 X0.471179 Y-0.244775 Z-0.046875
N239 G1 F100 X0.480417 Y-0.240948 Z-0.045937
N240 G1 F100 X0.489656 Y-0.237121 Z-0.043750
N241 G1 F100 X0.498895 Y-0.233294 Z-0.042813
N242 G1 F100 X0.508134 Y-0.229467 Z-0.041875
N243 G1 F100 X0.517373 Y-0.225641 Z-0.040938
N244 G1 F100 X0.526611 Y-0.221814 Z-0.040313
N245 G1 F100 X0.535850 Y-0.217987 Z-0.040313
N246 G1 F100 X0.545089 Y-0.214160 Z-0.040000
N247 G1 F100 X0.554328 Y-0.210333 Z-0.039375
N248 G1 F100 X0.563567 Y-0.206506 Z-0.039375
N249 G1 F100 X0.572805 Y-0.202680 Z-0.039375
N250 G1 F100 X0.582044 Y-0.198853 Z-0.039375
N251 G1 F100 X0.591283 Y-0.195026 Z-0.039688
N252 G1 F100 X0.600522 Y-0.191199 Z-0.040000
N253 G1 F100 X0.609760 Y-0.187372 Z-0.040625
N254 G1 F100 X0.618999 Y-0.183545 Z-0.041250
N255 G1 F100 X0.628238 Y-0.179719 Z-0.042188
N256 G1 F100 X0.637477 Y-0.175892 Z-0.042188
N257 G1 F100 X0.646716 Y-0.172065 Z-0.042500
N258 G1 F100 X0.655954 Y-0.168238 Z-0.043125
N259 G1 F100 X0.665193 Y-0.164411 Z-0.043750
N260 G1 F100 X0.674432 Y-0.160584 Z-0.044375
N261 G1 F100 X0.683671 Y-0.156758 Z-0.044375
N262 G1 F100 X0.692910 Y-0.152931 Z-0.043750
N263 G1 F100 X0.702148 Y-0.149104 Z-0.043125
N264 G1 F100 X0.711387 Y-0.145277 Z-0.043438
N265 G1 F100 X0.720626 Y-0.141450 Z-0.043750
N266 G1 F100 X0.729865 Y-0.137623 Z-0.044062
N267 G1 F100 X0.739104 Y-0.133797 Z-0.044062
N268 G1 F100 X0.748342 Y-0.129970 Z-0.044062
N269 G1 F100 X0.757581 Y-0.126143 Z-0.044062
N270 G1 F100 X0.766820 Y-0.122316 Z-0.044687
N271 G1 F100 X0.776059 Y-0.118489 Z-0.045312
N272 G1 F100 X0.785298 Y-0.114662 Z-0.044375
N273 G1 F100 X0.794536 Y-0.110836 Z-0.045312
N274 G1 F100 X0.803775 Y-0.107009 Z-0.045312
N275 G1 F100 X0.813014 Y-0.103182 Z-0.044687
N276 G1 F100 X0.822253 Y-0.099355 Z-0.044687
N277 G1 F100 X0.831492 Y-0.095528 Z-0.045312
N278 G1 F100 X0.840730 Y-0.091701 Z-0.045000
N279 G1 F100 X0.849969 Y-0.087875 Z-0.044062
N280 G1 F100 X0.859208 Y-0.084048 Z-0.044062
N281 G1 F100 X0.868447 Y-0.080221 Z-0.044375
N282 G1 F100 X0.877686 Y-0.076394 Z-0.044375
N283 G1 F100 X0.886924 Y-0.072567 Z-0.044375
N284 G1 F100 X0.896163 Y-0.068740 Z-0.043750
N285 G1 F100 X0.905402 Y-0.064914 Z-0.043125
N286 G1 F100 X0.914641 Y-0.061087 Z-0.042188
N287 G1 F100 X0.923880 Y-0.057260 Z-0.041563
N288 G1 F100 X0.933118 Y-0.053433 Z-0.041875
N289 G1 F100 X0.942357 Y-0.049606 Z-0.041875
N290 G1 F100 X0.951596 Y-0.045779 Z-0.041250
N291 G1 F100 X0.960835 Y-0.041953 Z-0.040625
N292 G1 F100 X0.970074 Y-0.038126 Z-0.039688
N293 G1 F100 X0.979312 Y-0.034299 Z-0.039375
N294 G1 F100 X0.988551 Y-0.030472 Z-0.039062
N295 G1 F100 X0.997790 Y-0.026645 Z-0.039375
N296 G1 F100 X1.007029 Y-0.022818 Z-0.040313
N297 G1 F100 X1.016267 Y-0.018992 Z-0.040313
N298 G1 F100 X1.025506 Y-0.015165 Z-0.040625
N299 G1 F100 X1.034745 Y-0.011338 Z-0.041250
N300 G1 F100 X1.043984 Y-0.007511 Z-0.040938
N301 G1 F100 X1.053223 Y-0.003684 Z-0.040938
N302 G1 F10 Z0.200000
N303 G0 X1.318752 Y-0.003684
N304 G1 F10 X1.318752 Y-0.003684 Z-0.036562
N305 G1 F100 X1.309513 Y-0.007511 Z-0.035000
N306 G1 F100 X1.300274 Y-0.011338 Z-0.033750
N307 G1 F100 X1.291036 Y-0.015165 Z-0.033125
N308 G1 F100 X1.281797 Y-0.018992 Z-0.033438
N309 G1 F100 X1.272558 Y-0.022818 Z-0.034063
N310 G1 F100 X1.263319 Y-0.026645 Z-0.034063
N311 G1 F100 X1.254080 Y-0.030472 Z-0.033750
N312 G1 F100 X1.244842 Y-0.034299 Z-0.033750
N313 G1 F100 X1.235603 Y-0.038126 Z-0.033750
N314 G1 F100 X1.226364 Y-0.041953 Z-0.034063
N315 G1 F100 X1.217125 Y-0.045779 Z-0.033750
N316 G1 F100 X1.207886 Y-0.049606 Z-0.033750
N317 G1 F100 X1.198648 Y-0.053433 Z-0.034375
N318 G1 F100 X1.189409 Y-0.057260 Z-0.036250
N319 G1 F100 X1.180170 Y-0.061087 Z-0.038437
N320 G1 F100 X1.170931 Y-0.064914 Z-0.038750
N321 G1 F100 X1.161692 Y-0.068740 Z-0.039062
N322 G1 F100 X1.152454 Y-0.072567 Z-0.041563
N323 G1 F100 X1.143215 Y-0.076394 Z-0.043438
N324 G1 F100 X1.133976 Y-0.080221 Z-0.043750
N325 G1 F100 X1.124737 Y-0.084048 Z-0.042813
N326 G1 F100 X1.115498 Y-0.087875 Z-0.041250
N327 G1 F100 X1.106260 Y-0.091701 Z-0.040000
N328 G1 F100 X1.097021 Y-0.095528 Z-0.039062
N329 G1 F100 X1.087782 Y-0.099355 Z-0.039062
N330 G1 F100 X1.078543 Y-0.103182 Z-0.038437
N331 G1 F100 X1.069304 Y-0.107009 Z-0.037500
N332 G1 F100 X1.060066 Y-0.110836 Z-0.036875
N333 G1 F100 X1.050827 Y-0.114662 Z-0.036562
N334 G1 F100 X1.041588 Y-0.118489 Z-0.035625
N335 G1 F100 X1.032349 Y-0.122316 Z-0.035000
N336 G1 F100 X1.023110 Y-0.126143 Z-0.033750
N337 G1 F100 X1.013872 Y-0.129970 Z-0.032813
N338 G1 F100 X1.004633 Y-0.133797 Z-0.032188
N339 G1 F100 X0.995394 Y-0.137623 Z-0.032500
N340 G1 F100 X0.986155 Y-0.141450 Z-0.032813
N341 G1 F100 X0.976916 Y-0.145277 Z-0.033438
N342 G1 F100 X0.967678 Y-0.149104 Z-0.033750
N343 G1 F100 X0.958439 Y-0.152931 Z-0.033750
N344 G1 F100 X0.949200 Y-0.156758 Z-0.033750
N345 G1 F100 X0.939961 Y-0.160584 Z-0.033750
N346 G1 F100 X0.930723 Y-0.164411 Z-0.033125
N347 G1 F100 X0.921484 Y-0.168238 Z-0.032813
N348 G1 F100 X0.912245 Y-0.172065 Z-0.033750
N349 G1 F100 X0.903006 Y-0.175892 Z-0.035938
N350 G1 F100 X0.893767 Y-0.179719 Z-0.037187
N351 G1 F100 X0.884529 Y-0.183545 Z-0.037500
N352 G1 F100 X0.875290 Y-0.187372 Z-0.038125
N353 G1 F100 X0.866051 Y-0.191199 Z-0.039062
N354 G1 F100 X0.856812 Y-0.195026 Z-0.039688
N355 G1 F100 X0.847573 Y-0.198853 Z-0.040938
N356 G1 F100 X0.838335 Y-0.202680 Z-0.042500
N357 G1 F100 X0.829096 Y-0.206506 Z-0.044062
N358 G1 F100 X0.819857 Y-0.210333 Z-0.045312
N359 G1 F100 X0.810618 Y-0.214160 Z-0.047188
N360 G1 F100 X0.801379 Y-0.217987 Z-0.048125
N361 G1 F100 X0.792141 Y-0.221814 Z-0.048438
N362 G1 F100 X0.782902 Y-0.225641 Z-0.048438
N363 G1 F100 X0.773663 Y-0.229467 Z-0.049375
N364 G1 F100 X0.764424 Y-0.233294 Z-0.049063
N365 G1 F100 X0.755185 Y-0.237121 Z-0.049063
N366 G1 F100 X0.745947 Y-0.240948 Z-0.049063
N367 G1 F100 X0.736708 Y-0.244775 Z-0.048125
N368 G1 F100 X0.727469 Y-0.248602 Z-0.046250
N369 G1 F100 X0.718230 Y-0.252428 Z-0.044375
N370 G1 F100 X0.708991 Y-0.256255 Z-0.043438
N371 G1 F100 X0.699753 Y-0.260082 Z-0.040625
N372 G1 F100 X0.690514 Y-0.263909 Z-0.039688
N373 G1 F100 X0.681275 Y-0.267736 Z-0.039375
N374 G1 F100 X0.672036 Y-0.271563 Z-0.039375
N375 G1 F100 X0.662797 Y-0.275389 Z-0.038750
N376 G1 F100 X0.653559 Y-0.279216 Z-0.038125
N377 G1 F100 X0.644320 Y-0.283043 Z-0.037500
N378 G1 F100 X0.635081 Y-0.286870 Z-0.037187
N379 G1 F100 X0.625842 Y-0.290697 Z-0.036875
N380 G1 F100 X0.616603 Y-0.294524 Z-0.036562
N381 G1 F100 X0.607365 Y-0.298350 Z-0.035313
N382 G1 F100 X0.598126 Y-0.302177 Z-0.034063
N383 G1 F100 X0.588887 Y-0.306004 Z-0.033125
N384 G1 F100 X0.579648 Y-0.309831 Z-0.032813
N385 G1 F100 X0.570410 Y-0.313658 Z-0.032188
N386 G1 F100 X0.561171 Y-0.317485 Z-0.031563
N387 G1 F100 X0.551932 Y-0.321311 Z-0.031250
N388 G1 F100 X0.542693 Y-0.325138 Z-0.031875
N389 G1 F100 X0.533454 Y-0.328965 Z-0.032188
N390 G1 F100 X0.524216 Y-0.332792 Z-0.032188
N391 G1 F100 X0.514977 Y-0.336619 Z-0.031875
N392 G1 F100 X0.505738 Y-0.340446 Z-0.032188
N393 G1 F100 X0.496499 Y-0.344272 Z-0.032813
N394 G1 F100 X0.487260 Y-0.348099 Z-0.034688
N395 G1 F100 X0.478022 Y-0.351926 Z-0.035938
N396 G1 F100 X0.468783 Y-0.355753 Z-0.036562
N397 G1 F100 X0.459544 Y-0.359580 Z-0.036250
N398 G1 F100 X0.450305 Y-0.363407 Z-0.036875
N399 G1 F100 X0.441066 Y-0.367233 Z-0.037500
N400 G1 F100 X0.431828 Y-0.371060 Z-0.038125
N401 G1 F100 X0.422589 Y-0.374887 Z-0.038750
N402 G1 F100 X0.413350 Y-0.378714 Z-0.038125
N403 G1 F100 X0.404111 Y-0.382541 Z-0.037187
N404 G1 F100 X0.394872 Y-0.386368 Z-0.036250
N405 G1 F100 X0.385634 Y-0.390194 Z-0.035938
N406 G1 F100 X0.376395 Y-0.394021 Z-0.036562
N407 G1 F100 X0.367156 Y-0.397848 Z-0.036250
N408 G1 F100 X0.357917 Y-0.401675 Z-0.035938
N409 G1 F100 X0.348678 Y-0.405502 Z-0.035625
N410 G1 F100 X0.339440 Y-0.409329 Z-0.035625
N411 G1 F100 X0.330201 Y-0.413155 Z-0.035313
N412 G1 F100 X0.320962 Y-0.416982 Z-0.035000
N413 G1 F100 X0.311723 Y-0.420809 Z-0.035313
N414 G1 F100 X0.302484 Y-0.424636 Z-0.035625
N415 G1 F100 X0.293246 Y-0.428463 Z-0.034688
N416 G1 F100 X0.284007 Y-0.432290 Z-0.034688
N417 G1 F100 X0.274768 Y-0.436116 Z-0.034688
N418 G1 F100 X0.265529 Y-0.439943 Z-0.034688
N419 G1 F100 X0.256290 Y-0.443770 Z-0.034375
N420 G1 F100 X0.247052 Y-0.447597 Z-0.034063
N421 G1 F100 X0.237813 Y-0.451424 Z-0.034688
N422 G1 F100 X0.228574 Y-0.455251 Z-0.032188
N423 G1 F100 X0.219335 Y-0.459077 Z-0.031563
N424 G1 F100 X0.210096 Y-0.462904 Z-0.030937
N425 G1 F100 X0.200858 Y-0.466731 Z-0.031250
N426 G1 F100 X0.191619 Y-0.470558 Z-0.031875
N427 G1 F100 X0.182380 Y-0.474385 Z-0.032500
N428 G1 F100 X0.173141 Y-0.478212 Z-0.032500
N429 G1 F100 X0.163903 Y-0.482038 Z-0.032813
N430 G1 F100 X0.154664 Y-0.485865 Z-0.032188
N431 G1 F100 X0.145425 Y-0.489692 Z-0.031875
N432 G1 F100 X0.136186 Y-0.493519 Z-0.031875
N433 G1 F100 X0.126947 Y-0.497346 Z-0.032188
N434 G1 F100 X0.117709 Y-0.501173 Z-0.032188
N435 G1 F100 X0.108470 Y-0.504999 Z-0.032813
N436 G1 F100 X0.099231 Y-0.508826 Z-0.033125
N437 G1 F100 X0.089992 Y-0.512653 Z-0.033438
N438 G1 F100 X0.080753 Y-0.516480 Z-0.033750
N439 G1 F100 X0.071515 Y-0.520307 Z-0.034375
N440 G1 F100 X0.062276 Y-0.524134 Z-0.034688
N441 G1 F100 X0.053037 Y-0.527960 Z-0.034375
N442 G1 F100 X0.043798 Y-0.531787 Z-0.034375
N443 G1 F100 X0.034559 Y-0.535614 Z-0.034063
N444 G1 F100 X0.025321 Y-0.539441 Z-0.034375
N445 G1 F100 X0.016082 Y-0.543268 Z-0.035000
N446 G1 F100 X0.006843 Y-0.547095 Z-0.035938
N447 G1 F10 Z0.200000
N448 G0 X0.000000 Y-0.659915
N449 G1 F10 X0.000000 Y-0.659915 Z-0.035313
N450 G1 F100 X0.009239 Y-0.656088 Z-0.035313
N451 G1 F100 X0.018478 Y-0.652261 Z-0.035000
N452 G1 F100 X0.027716 Y-0.648434 Z-0.035000
N453 G1 F100 X0.036955 Y-0.644608 Z-0.034375
N454 G1 F100 X0.046194 Y-0.640781 Z-0.034063
N455 G1 F100 X0.055433 Y-0.636954 Z-0.034063
N456 G1 F100 X0.064672 Y-0.633127 Z-0.034063
N457 G1 F100 X0.073910 Y-0.629300 Z-0.034063
N458 G1 F100 X0.083149 Y-0.625473 Z-0.034688
N459 G1 F100 X0.092388 Y-0.621647 Z-0.034063
N460 G1 F100 X0.101627 Y-0.617820 Z-0.034063
N461 G1 F100 X0.110866 Y-0.613993 Z-0.034375
N462 G1 F100 X0.120104 Y-0.610166 Z-0.034375
N463 G1 F100 X0.129343 Y-0.606339 Z-0.034375
N464 G1 F100 X0.138582 Y-0.602512 Z-0.034375
N465 G1 F100 X0.147821 Y-0.598686 Z-0.034375
N466 G1 F100 X0.157060 Y-0.594859 Z-0.034375
N467 G1 F100 X0.166298 Y-0.591032 Z-0.034375
N468 G1 F100 X0.175537 Y-0.587205 Z-0.034375
N469 G1 F100 X0.184776 Y-0.583378 Z-0.034375
N470 G1 F100 X0.194015 Y-0.579551 Z-0.034375
N471 G1 F100 X0.203253 Y-0.575725 Z-0.034375
N472 G1 F100 X0.212492 Y-0.571898 Z-0.034375
N473 G1 F100 X0.221731 Y-0.568071 Z-0.034063
N474 G1 F100 X0.230970 Y-0.564244 Z-0.034063
N475 G1 F100 X0.240209 Y-0.560417 Z-0.034375
N476 G1 F100 X0.249447 Y-0.556590 Z-0.034688
N477 G1 F100 X0.258686 Y-0.552764 Z-0.034688
N478 G1 F100 X0.267925 Y-0.548937 Z-0.035000
N479 G1 F100 X0.277164 Y-0.545110 Z-0.034688
N480 G1 F100 X0.286403 Y-0.541283 Z-0.035000
N481 G1 F100 X0.295641 Y-0.537456 Z-0.035000
N482 G1 F100 X0.304880 Y-0.533629 Z-0.035000
N483 G1 F100 X0.314119 Y-0.529803 Z-0.034688
N484 G1 F100 X0.323358 Y-0.525976 Z-0.034688
N485 G1 F100 X0.332597 Y-0.522149 Z-0.034375
N486 G1 F100 X0.341835 Y-0.518322 Z-0.034063
N487 G1 F100 X0.351074 Y-0.514495 Z-0.033438
N488 G1 F100 X0.360313 Y-0.510668 Z-0.033438
N489 G1 F100 X0.369552 Y-0.506842 Z-0.033438
N490 G1 F100 X0.378791 Y-0.503015 Z-0.033438
N491 G1 F100 X0.388029 Y-0.499188 Z-0.033125
N492 G1 F100 X0.397268 Y-0.495361 Z-0.032813
N493 G1 F100 X0.406507 Y-0.491534 Z-0.032500
N494 G1 F100 X0.415746 Y-0.487707 Z-0.031875
N495 G1 F100 X0.424985 Y-0.483881 Z-0.031563
N496 G1 F100 X0.434223 Y-0.480054 Z-0.031250
N497 G1 F100 X0.443462 Y-0.476227 Z-0.031250
N498 G1 F100 X0.452701 Y-0.472400 Z-0.031250
N499 G1 F100 X0.461940 Y-0.468573 Z-0.031563
N500 G1 F100 X0.471179 Y-0.464746 Z-0.031563
N501 G1 F100 X0.480417 Y-0.460920 Z-0.031563
N502 G1 F100 X0.489656 Y-0.457093 Z-0.030625
N503 G1 F100 X0.498895 Y-0.453266 Z-0.030000
N504 G1 F100 X0.508134 Y-0.449439 Z-0.029375
N505 G1 F100 X0.517373 Y-0.445612 Z-0.028750
N506 G1 F100 X0.526611 Y-0.441785 Z-0.028750
N507 G1 F100 X0.535850 Y-0.437959 Z-0.028750
N508 G1 F100 X0.545089 Y-0.434132 Z-0.029375
N509 G1 F100 X0.554328 Y-0.430305 Z-0.030000
N510 G1 F100 X0.563567 Y-0.426478 Z-0.030000
N511 G1 F100 X0.572805 Y-0.422651 Z-0.030625
N512 G1 F100 X0.582044 Y-0.418824 Z-0.031250
N513 G1 F100 X0.591283 Y-0.414998 Z-0.032188
N514 G1 F100 X0.600522 Y-0.411171 Z-0.032813
N515 G1 F100 X0.609760 Y-0.407344 Z-0.033125
N516 G1 F100 X0.618999 Y-0.403517 Z-0.033438
N517 G1 F100 X0.628238 Y-0.399690 Z-0.033125
N518 G1 F100 X0.637477 Y-0.395863 Z-0.033438
N519 G1 F100 X0.646716 Y-0.392037 Z-0.034063
N520 G1 F100 X0.655954 Y-0.388210 Z-0.033750
N521 G1 F100 X0.665193 Y-0.384383 Z-0.032813
N522 G1 F100 X0.674432 Y-0.380556 Z-0.031875
N523 G1 F100 X0.683671 Y-0.376729 Z-0.031563
N524 G1 F100 X0.692910 Y-0.372902 Z-0.032188
N525 G1 F100 X0.702148 Y-0.369076 Z-0.032500
N526 G1 F100 X0.711387 Y-0.365249 Z-0.033125
N527 G1 F100 X0.720626 Y-0.361422 Z-0.034375
N528 G1 F100 X0.729865 Y-0.357595 Z-0.035625
N529 G1 F100 X0.739104 Y-0.353768 Z-0.037187
N530 G1 F100 X0.748342 Y-0.349941 Z-0.038750
N531 G1 F100 X0.757581 Y-0.346115 Z-0.040938
N532 G1 F100 X0.766820 Y-0.342288 Z-0.042500
N533 G1 F100 X0.776059 Y-0.338461 Z-0.043125
N534 G1 F100 X0.785298 Y-0.334634 Z-0.044687
N535 G1 F100 X0.794536 Y-0.330807 Z-0.045312
N536 G1 F100 X0.803775 Y-0.326980 Z-0.045937
N537 G1 F100 X0.813014 Y-0.323153 Z-0.045625
N538 G1 F100 X0.822253 Y-0.319327 Z-0.044375
N539 G1 F100 X0.831492 Y-0.315500 Z-0.043750
N540 G1 F100 X0.840730 Y-0.311673 Z-0.043125
N541 G1 F100 X0.849969 Y-0.307846 Z-0.042500
N542 G1 F100 X0.859208 Y-0.304019 Z-0.040938
N543 G1 F100 X0.868447 Y-0.300192 Z-0.040313
N544 G1 F100 X0.877686 Y-0.296366 Z-0.040313
N545 G1 F100 X0.886924 Y-0.292539 Z-0.040313
N546 G1 F100 X0.896163 Y-0.288712 Z-0.039688
N547 G1 F100 X0.905402 Y-0.284885 Z-0.038750
N548 G1 F100 X0.914641 Y-0.281058 Z-0.038125
N549 G1 F100 X0.923880 Y-0.277231 Z-0.037812
N550 G1 F100 X0.933118 Y-0.273405 Z-0.037187
N551 G1 F100 X0.942357 Y-0.269578 Z-0.036250
N552 G1 F100 X0.951596 Y-0.265751 Z-0.036875
N553 G1 F100 X0.960835 Y-0.261924 Z-0.037500
N554 G1 F100 X0.970074 Y-0.258097 Z-0.038125
N555 G1 F100 X0.979312 Y-0.254270 Z-0.037812
N556 G1 F100 X0.988551 Y-0.250444 Z-0.037812
N557 G1 F100 X0.997790 Y-0.246617 Z-0.038125
N558 G1 F100 X1.007029 Y-0.242790 Z-0.038125
N559 G1 F100 X1.016267 Y-0.238963 Z-0.038437
N560 G1 F100 X1.025506 Y-0.235136 Z-0.038750
N561 G1 F100 X1.034745 Y-0.231309 Z-0.038750
N562 G1 F100 X1.043984 Y-0.227483 Z-0.040313
N563 G1 F100 X1.053223 Y-0.223656 Z-0.042500
N564 G1 F100 X1.062461 Y-0.219829 Z-0.044687
N565 G1 F100 X1.071700 Y-0.216002 Z-0.046250
N566 G1 F100 X1.080939 Y-0.212175 Z-0.046562
N567 G1 F100 X1.090178 Y-0.208348 Z-0.047500
N568 G1 F100 X1.099417 Y-0.204522 Z-0.048750
N569 G1 F100 X1.108655 Y-0.200695 Z-0.049375
N570 G1 F100 X1.117894 Y-0.196868 Z-0.050313
N571 G1 F100 X1.127133 Y-0.193041 Z-0.050313
N572 G1 F100 X1.136372 Y-0.189214 Z-0.050000
N573 G1 F100 X1.145611 Y-0.185387 Z-0.049375
N574 G1 F100 X1.154849 Y-0.181561 Z-0.047500
N575 G1 F100 X1.164088 Y-0.177734 Z-0.045625
N576 G1 F100 X1.173327 Y-0.173907 Z-0.043125
N577 G1 F100 X1.182566 Y-0.170080 Z-0.041250
N578 G1 F100 X1.191805 Y-0.166253 Z-0.039375
N579 G1 F100 X1.201043 Y-0.162426 Z-0.037812
N580 G1 F100 X1.210282 Y-0.158600 Z-0.036250
N581 G1 F100 X1.219521 Y-0.154773 Z-0.035000
N582 G1 F100 X1.228760 Y-0.150946 Z-0.033438
N583 G1 F100 X1.237999 Y-0.147119 Z-0.030937
N584 G1 F100 X1.247237 Y-0.143292 Z-0.029063
N585 G1 F100 X1.256476 Y-0.139465 Z-0.028438
N586 G1 F100 X1.265715 Y-0.135639 Z-0.027500
N587 G1 F100 X1.274954 Y-0.131812 Z-0.025938
N588 G1 F100 X1.284193 Y-0.127985 Z-0.025313
N589 G1 F100 X1.293431 Y-0.124158 Z-0.025000
N590 G1 F100 X1.302670 Y-0.120331 Z-0.025313
N591 G1 F100 X1.311909 Y-0.116504 Z-0.025938
N592 G1 F100 X1.321148 Y-0.112678 Z-0.026250
N593 G1 F100 X1.330387 Y-0.108851 Z-0.026562
N594 G1 F100 X1.339625 Y-0.105024 Z-0.027500
N595 G1 F100 X1.348864 Y-0.101197 Z-0.029063
N596 G1 F100 X1.358103 Y-0.097370 Z-0.030625
N597 G1 F100 X1.367342 Y-0.093543 Z-0.032813
N598 G1 F100 X1.376581 Y-0.089717 Z-0.035000
N599 G1 F100 X1.385819 Y-0.085890 Z-0.037187
N600 G1 F100 X1.395058 Y-0.082063 Z-0.038437
N601 G1 F100 X1.404297 Y-0.078236 Z-0.040000
N602 G1 F100 X1.413536 Y-0.074409 Z-0.041563
N603 G1 F100 X1.422774 Y-0.070582 Z-0.042500
N604 G1 F100 X1.432013 Y-0.066756 Z-0.044062
N605 G1 F100 X1.441252 Y-0.062929 Z-0.045000
N606 G1 F100 X1.450491 Y-0.059102 Z-0.045312
N607 G1 F100 X1.459730 Y-0.055275 Z-0.045625
N608 G1 F100 X1.468968 Y-0.051448 Z-0.046250
N609 G1 F100 X1.478207 Y-0.047621 Z-0.046875
N610 G1 F100 X1.487446 Y-0.043795 Z-0.045312
N611 G1 F100 X1.496685 Y-0.039968 Z-0.045312
N612 G1 F100 X1.505924 Y-0.036141 Z-0.045312
N613 G1 F100 X1.515162 Y-0.032314 Z-0.045312
N614 G1 F100 X1.524401 Y-0.028487 Z-0.045625
N615 G1 F100 X1.533640 Y-0.024660 Z-0.045937
N616 G1 F100 X1.542879 Y-0.020834 Z-0.046250
N617 G1 F100 X1.552118 Y-0.017007 Z-0.046250
N618 G1 F100 X1.561356 Y-0.013180 Z-0.045937
N619 G1 F100 X1.570595 Y-0.009353 Z-0.045000
N620 G1 F100 X1.579834 Y-0.005526 Z-0.044375
N621 G1 F100 X1.589073 Y-0.001699 Z-0.044062
N622 G1 F10 Z0.200000
N623 G0 X1.854602 Y-0.001699
N624 G1 F10 X1.854602 Y-0.001699 Z-0.042813
N625 G1 F100 X1.845363 Y-0.005526 Z-0.043438
N626 G1 F100 X1.836124 Y-0.009353 Z-0.043438
N627 G1 F100 X1.826886 Y-0.013180 Z-0.043125
N628 G1 F100 X1.817647 Y-0.017007 Z-0.043125
N629 G1 F100 X1.808408 Y-0.020834 Z-0.043438
N630 G1 F100 X1.799169 Y-0.024660 Z-0.043750
N631 G1 F100 X1.789930 Y-0.028487 Z-0.043438
N632 G1 F100 X1.780692 Y-0.032314 Z-0.044687
N633 G1 F100 X1.771453 Y-0.036141 Z-0.045625
N634 G1 F100 X1.762214 Y-0.039968 Z-0.045000
N635 G1 F100 X1.752975 Y-0.043795 Z-0.044687
N636 G1 F100 X1.743737 Y-0.047621 Z-0.045312
N637 G1 F100 X1.734498 Y-0.051448 Z-0.045000
N638 G1 F100 X1.725259 Y-0.055275 Z-0.044062
N639 G1 F100 X1.716020 Y-0.059102 Z-0.043750
N640 G1 F100 X1.706781 Y-0.062929 Z-0.044375
N641 G1 F100 X1.697543 Y-0.066756 Z-0.045625
N642 G1 F100 X1.688304 Y-0.070582 Z-0.045625
N643 G1 F100 X1.679065 Y-0.074409 Z-0.045312
N644 G1 F100 X1.669826 Y-0.078236 Z-0.045000
N645 G1 F100 X1.660587 Y-0.082063 Z-0.045312
N646 G1 F100 X1.651349 Y-0.085890 Z-0.044687
N647 G1 F100 X1.642110 Y-0.089717 Z-0.044062
N648 G1 F100 X1.632871 Y-0.093543 Z-0.044062
N649 G1 F100 X1.623632 Y-0.097370 Z-0.044375
N650 G1 F100 X1.614393 Y-0.101197 Z-0.045312
N651 G1 F100 X1.605155 Y-0.105024 Z-0.045312
N652 G1 F100 X1.595916 Y-0.108851 Z-0.045000
N653 G1 F100 X1.586677 Y-0.112678 Z-0.044687
N654 G1 F100 X1.577438 Y-0.116504 Z-0.044687
N655 G1 F100 X1.568199 Y-0.120331 Z-0.045312
N656 G1 F100 X1.558961 Y-0.124158 Z-0.045312
N657 G1 F100 X1.549722 Y-0.127985 Z-0.045312
N658 G1 F100 X1.540483 Y-0.131812 Z-0.045625
N659 G1 F100 X1.531244 Y-0.135639 Z-0.045625
N660 G1 F100 X1.522005 Y-0.139465 Z-0.045312
N661 G1 F100 X1.512767 Y-0.143292 Z-0.045312
N662 G1 F100 X1.503528 Y-0.147119 Z-0.045312
N663 G1 F100 X1.494289 Y-0.150946 Z-0.045312
N664 G1 F100 X1.485050 Y-0.154773 Z-0.045312
N665 G1 F100 X1.475811 Y-0.158600 Z-0.044062
N666 G1 F100 X1.466573 Y-0.162426 Z-0.044062
N667 G1 F100 X1.457334 Y-0.166253 Z-0.043438
N668 G1 F100 X1.448095 Y-0.170080 Z-0.041563
N669 G1 F100 X1.438856 Y-0.173907 Z-0.040000
N670 G1 F100 X1.429617 Y-0.177734 Z-0.039062
N671 G1 F100 X1.420379 Y-0.181561 Z-0.039375
N672 G1 F100 X1.411140 Y-0.185387 Z-0.038750
N673 G1 F100 X1.401901 Y-0.189214 Z-0.035625
N674 G1 F100 X1.392662 Y-0.193041 Z-0.033750
N675 G1 F100 X1.383423 Y-0.196868 Z-0.031875
N676 G1 F100 X1.374185 Y-0.200695 Z-0.030312
N677 G1 F100 X1.364946 Y-0.204522 Z-0.029063
N678 G1 F100 X1.355707 Y-0.208348 Z-0.028125
N679 G1 F100 X1.346468 Y-0.212175 Z-0.027500
N680 G1 F100 X1.337230 Y-0.216002 Z-0.027500
N681 G1 F100 X1.327991 Y-0.219829 Z-0.026562
N682 G1 F100 X1.318752 Y-0.223656 Z-0.026875
N683 G1 F100 X1.309513 Y-0.227483 Z-0.027500
N684 G1 F100 X1.300274 Y-0.231309 Z-0.027187
N685 G1 F100 X1.291036 Y-0.235136 Z-0.027187
N686 G1 F100 X1.281797 Y-0.238963 Z-0.028125
N687 G1 F100 X1.272558 Y-0.242790 Z-0.028750
N688 G1 F100 X1.263319 Y-0.246617 Z-0.029688
N689 G1 F100 X1.254080 Y-0.250444 Z-0.030000
N690 G1 F100 X1.244842 Y-0.254270 Z-0.030000
N691 G1 F100 X1.235603 Y-0.258097 Z-0.033125
N692 G1 F100 X1.226364 Y-0.261924 Z-0.035000
N693 G1 F100 X1.217125 Y-0.265751 Z-0.036875
N694 G1 F100 X1.207886 Y-0.269578 Z-0.040000
N695 G1 F100 X1.198648 Y-0.273405 Z-0.041250
N696 G1 F100 X1.189409 Y-0.277231 Z-0.042188
N697 G1 F100 X1.180170 Y-0.281058 Z-0.043750
N698 G1 F100 X1.170931 Y-0.284885 Z-0.044687
N699 G1 F100 X1.161692 Y-0.288712 Z-0.045937
N700 G1 F100 X1.152454 Y-0.292539 Z-0.047188
N701 G1 F100 X1.143215 Y-0.296366 Z-0.048438
N702 G1 F100 X1.133976 Y-0.300192 Z-0.049063
N703 G1 F100 X1.124737 Y-0.304019 Z-0.049688
N704 G1 F100 X1.115498 Y-0.307846 Z-0.049063
N705 G1 F100 X1.106260 Y-0.311673 Z-0.048750
N706 G1 F100 X1.097021 Y-0.315500 Z-0.049063
N707 G1 F100 X1.087782 Y-0.319327 Z-0.047813
N708 G1 F100 X1.078543 Y-0.323153 Z-0.046562
N709 G1 F100 X1.069304 Y-0.326980 Z-0.045937
N710 G1 F100 X1.060066 Y-0.330807 Z-0.045312
N711 G1 F100 X1.050827 Y-0.334634 Z-0.045000
N712 G1 F100 X1.041588 Y-0.338461 Z-0.044062
N713 G1 F100 X1.032349 Y-0.342288 Z-0.042813
N714 G1 F100 X1.023110 Y-0.346115 Z-0.041563
N715 G1 F100 X1.013872 Y-0.349941 Z-0.040938
N716 G1 F100 X1.004633 Y-0.353768 Z-0.040938
N717 G1 F100 X0.995394 Y-0.357595 Z-0.041250
N718 G1 F100 X0.986155 Y-0.361422 Z-0.041563
N719 G1 F100 X0.976916 Y-0.365249 Z-0.041250
N720 G1 F100 X0.967678 Y-0.369076 Z-0.041250
N721 G1 F100 X0.958439 Y-0.372902 Z-0.041250
N722 G1 F100 X0.949200 Y-0.376729 Z-0.040938
N723 G1 F100 X0.939961 Y-0.380556 Z-0.040000
N724 G1 F100 X0.930723 Y-0.384383 Z-0.040625
N725 G1 F100 X0.921484 Y-0.388210 Z-0.040313
N726 G1 F100 X0.912245 Y-0.392037 Z-0.040313
N727 G1 F100 X0.903006 Y-0.395863 Z-0.040938
N728 G1 F100 X0.893767 Y-0.399690 Z-0.040313
N729 G1 F100 X0.884529 Y-0.403517 Z-0.039375
N730 G1 F100 X0.875290 Y-0.407344 Z-0.038125
N731 G1 F100 X0.866051 Y-0.411171 Z-0.036875
N732 G1 F100 X0.856812 Y-0.414998 Z-0.036250
N733 G1 F100 X0.847573 Y-0.418824 Z-0.035938
N734 G1 F100 X0.838335 Y-0.422651 Z-0.036250
N735 G1 F100 X0.829096 Y-0.426478 Z-0.035313
N736 G1 F100 X0.819857 Y-0.430305 Z-0.034375
N737 G1 F100 X0.810618 Y-0.434132 Z-0.033438
N738 G1 F100 X0.801379 Y-0.437959 Z-0.033438
N739 G1 F100 X0.792141 Y-0.441785 Z-0.032813
N740 G1 F100 X0.782902 Y-0.445612 Z-0.031250
N741 G1 F100 X0.773663 Y-0.449439 Z-0.030000
N742 G1 F100 X0.764424 Y-0.453266 Z-0.029688
N743 G1 F100 X0.755185 Y-0.457093 Z-0.029063
N744 G1 F100 X0.745947 Y-0.460920 Z-0.028750
N745 G1 F100 X0.736708 Y-0.464746 Z-0.028438
N746 G1 F100 X0.727469 Y-0.468573 Z-0.027813
N747 G1 F100 X0.718230 Y-0.472400 Z-0.027500
N748 G1 F100 X0.708991 Y-0.476227 Z-0.027813
N749 G1 F100 X0.699753 Y-0.480054 Z-0.027500
N750 G1 F100 X0.690514 Y-0.483881 Z-0.027813
N751 G1 F100 X0.681275 Y-0.487707 Z-0.028750
N752 G1 F100 X0.672036 Y-0.491534 Z-0.029688
N753 G1 F100 X0.662797 Y-0.495361 Z-0.030625
N754 G1 F100 X0.653559 Y-0.499188 Z-0.031563
N755 G1 F100 X0.644320 Y-0.503015 Z-0.032813
N756 G1 F100 X0.635081 Y-0.506842 Z-0.034375
N757 G1 F100 X0.625842 Y-0.510668 Z-0.035000
N758 G1 F100 X0.616603 Y-0.514495 Z-0.034688
N759 G1 F100 X0.607365 Y-0.518322 Z-0.034688
N760 G1 F100 X0.598126 Y-0.522149 Z-0.034375
N761 G1 F100 X0.588887 Y-0.525976 Z-0.034063
N762 G1 F100 X0.579648 Y-0.529803 Z-0.034063
N763 G1 F100 X0.570410 Y-0.533629 Z-0.034063
N764 G1 F100 X0.561171 Y-0.537456 Z-0.034063
N765 G1 F100 X0.551932 Y-0.541283 Z-0.034375
N766 G1 F100 X0.542693 Y-0.545110 Z-0.032500
N767 G1 F100 X0.533454 Y-0.548937 Z-0.031875
N768 G1 F100 X0.524216 Y-0.552764 Z-0.031875
N769 G1 F100 X0.514977 Y-0.556590 Z-0.032188
N770 G1 F100 X0.505738 Y-0.560417 Z-0.032500
N771 G1 F100 X0.496499 Y-0.564244 Z-0.032813
N772 G1 F100 X0.487260 Y-0.568071 Z-0.033125
N773 G1 F100 X0.478022 Y-0.571898 Z-0.033438
N774 G1 F100 X0.468783 Y-0.575725 Z-0.033438
N775 G1 F100 X0.459544 Y-0.579551 Z-0.032813
N776 G1 F100 X0.450305 Y-0.583378 Z-0.033125
N777 G1 F100 X0.441066 Y-0.587205 Z-0.034063
N778 G1 F100 X0.431828 Y-0.591032 Z-0.034688
N779 G1 F100 X0.422589 Y-0.594859 Z-0.035313
N780 G1 F100 X0.413350 Y-0.598686 Z-0.035313
N781 G1 F100 X0.404111 Y-0.602512 Z-0.035313
N782 G1 F100 X0.394872 Y-0.606339 Z-0.035313
N783 G1 F100 X0.385634 Y-0.610166 Z-0.033750
N784 G1 F100 X0.376395 Y-0.613993 Z-0.033750
N785 G1 F100 X0.367156 Y-0.617820 Z-0.034375
N786 G1 F100 X0.357917 Y-0.621647 Z-0.034063
N787 G1 F100 X0.348678 Y-0.625473 Z-0.034375
N788 G1 F100 X0.339440 Y-0.629300 Z-0.035625
N789 G1 F100 X0.330201 Y-0.633127 Z-0.036250
N790 G1 F100 X0.320962 Y-0.636954 Z-0.036250
N791 G1 F100 X0.311723 Y-0.640781 Z-0.035938
N792 G1 F100 X0.302484 Y-0.644608 Z-0.035625
N793 G1 F100 X0.293246 Y-0.648434 Z-0.036250
N794 G1 F100 X0.284007 Y-0.652261 Z-0.036250
N795 G1 F100 X0.274768 Y-0.656088 Z-0.036250
N796 G1 F100 X0.265529 Y-0.659915 Z-0.036562
N797 G1 F100 X0.256290 Y-0.663742 Z-0.036875
N798 G1 F100 X0.247052 Y-0.667569 Z-0.036875
N799 G1 F100 X0.237813 Y-0.671395 Z-0.036250
N800 G1 F100 X0.228574 Y-0.675222 Z-0.034688
N801 G1 F100 X0.219335 Y-0.679049 Z-0.035000
N802 G1 F100 X0.210096 Y-0.682876 Z-0.035313
N803 G1 F100 X0.200858 Y-0.686703 Z-0.035313
N804 G1 F100 X0.191619 Y-0.690530 Z-0.035000
N805 G1 F100 X0.182380 Y-0.694356 Z-0.034688
N806 G1 F100 X0.173141 Y-0.698183 Z-0.034375
N807 G1 F100 X0.163903 Y-0.702010 Z-0.034063
N808 G1 F100 X0.154664 Y-0.705837 Z-0.033125
N809 G1 F100 X0.145425 Y-0.709664 Z-0.032188
N810 G1 F100 X0.136186 Y-0.713491 Z-0.032188
N811 G1 F100 X0.126947 Y-0.717317 Z-0.031875
N812 G1 F100 X0.117709 Y-0.721144 Z-0.031563
N813 G1 F100 X0.108470 Y-0.724971 Z-0.031250
N814 G1 F100 X0.099231 Y-0.728798 Z-0.031563
N815 G1 F100 X0.089992 Y-0.732625 Z-0.031563
N816 G1 F100 X0.080753 Y-0.736452 Z-0.031563
N817 G1 F100 X0.071515 Y-0.740278 Z-0.031250
N818 G1 F100 X0.062276 Y-0.744105 Z-0.030937
N819 G1 F100 X0.053037 Y-0.747932 Z-0.031250
N820 G1 F100 X0.043798 Y-0.751759 Z-0.031250
N821 G1 F100 X0.034559 Y-0.755586 Z-0.031563
N822 G1 F100 X0.025321 Y-0.759413 Z-0.031563
N823 G1 F100 X0.016082 Y-0.763239 Z-0.031875
N824 G1 F100 X0.006843 Y-0.767066 Z-0.031875
N825 G1 F10 Z0.200000
N826 G0 X0.000000 Y-0.879887
N827 G1 F10 X0.000000 Y-0.879887 Z-0.030937
N828 G1 F100 X0.009239 Y-0.876060 Z-0.030937
N829 G1 F100 X0.018478 Y-0.872233 Z-0.030937
N830 G1 F100 X0.027716 Y-0.868406 Z-0.030937
N831 G1 F100 X0.036955 Y-0.864579 Z-0.030937
N832 G1 F100 X0.046194 Y-0.860752 Z-0.030937
N833 G1 F100 X0.055433 Y-0.856926 Z-0.030937
N834 G1 F100 X0.064672 Y-0.853099 Z-0.030937
N835 G1 F100 X0.073910 Y-0.849272 Z-0.030937
N836 G1 F100 X0.083149 Y-0.845445 Z-0.030937
N837 G1 F100 X0.092388 Y-0.841618 Z-0.030937
N838 G1 F100 X0.101627 Y-0.837791 Z-0.030937
N839 G1 F100 X0.110866 Y-0.833965 Z-0.030937
N840 G1 F100 X0.120104 Y-0.830138 Z-0.030937
N841 G1 F100 X0.129343 Y-0.826311 Z-0.030937
N842 G1 F100 X0.138582 Y-0.822484 Z-0.030937
N843 G1 F100 X0.147821 Y-0.818657 Z-0.030937
N844 G1 F100 X0.157060 Y-0.814830 Z-0.031250
N845 G1 F100 X0.166298 Y-0.811004 Z-0.031875
N846 G1 F100 X0.175537 Y-0.807177 Z-0.032500
N847 G1 F100 X0.184776 Y-0.803350 Z-0.033125
N848 G1 F100 X0.194015 Y-0.799523 Z-0.033438
N849 G1 F100 X0.203253 Y-0.795696 Z-0.033750
N850 G1 F100 X0.212492 Y-0.791869 Z-0.033750
N851 G1 F100 X0.221731 Y-0.788043 Z-0.033750
N852 G1 F100 X0.230970 Y-0.784216 Z-0.033750
N853 G1 F100 X0.240209 Y-0.780389 Z-0.034688
N854 G1 F100 X0.249447 Y-0.776562 Z-0.034688
N855 G1 F100 X0.258686 Y-0.772735 Z-0.034375
N856 G1 F100 X0.267925 Y-0.768908 Z-0.034375
N857 G1 F100 X0.277164 Y-0.765082 Z-0.034063
N858 G1 F100 X0.286403 Y-0.761255 Z-0.034375
N859 G1 F100 X0.295641 Y-0.757428 Z-0.034688
N860 G1 F100 X0.304880 Y-0.753601 Z-0.035000
N861 G1 F100 X0.314119 Y-0.749774 Z-0.035625
N862 G1 F100 X0.323358 Y-0.745947 Z-0.035938
N863 G1 F100 X0.332597 Y-0.742121 Z-0.035938
N864 G1 F100 X0.341835 Y-0.738294 Z-0.035938
N865 G1 F100 X0.351074 Y-0.734467 Z-0.035938
N866 G1 F100 X0.360313 Y-0.730640 Z-0.035625
N867 G1 F100 X0.369552 Y-0.726813 Z-0.035313
N868 G1 F100 X0.378791 Y-0.722986 Z-0.035313
N869 G1 F100 X0.388029 Y-0.719160 Z-0.035313
N870 G1 F100 X0.397268 Y-0.715333 Z-0.035313
N871 G1 F100 X0.406507 Y-0.711506 Z-0.035938
N872 G1 F100 X0.415746 Y-0.707679 Z-0.036250
N873 G1 F100 X0.424985 Y-0.703852 Z-0.035938
N874 G1 F100 X0.434223 Y-0.700025 Z-0.036250
N875 G1 F100 X0.443462 Y-0.696199 Z-0.036562
N876 G1 F100 X0.452701 Y-0.692372 Z-0.036562
N877 G1 F100 X0.461940 Y-0.688545 Z-0.036875
N878 G1 F100 X0.471179 Y-0.684718 Z-0.038437
N879 G1 F100 X0.480417 Y-0.680891 Z-0.038750
N880 G1 F100 X0.489656 Y-0.677064 Z-0.038437
N881 G1 F100 X0.498895 Y-0.673238 Z-0.037812
N882 G1 F100 X0.508134 Y-0.669411 Z-0.037187
N883 G1 F100 X0.517373 Y-0.665584 Z-0.036562
N884 G1 F100 X0.526611 Y-0.661757 Z-0.036562
N885 G1 F100 X0.535850 Y-0.657930 Z-0.036562
N886 G1 F100 X0.545089 Y-0.654103 Z-0.036875
N887 G1 F100 X0.554328 Y-0.650276 Z-0.037187
N888 G1 F100 X0.563567 Y-0.646450 Z-0.037187
N889 G1 F100 X0.572805 Y-0.642623 Z-0.036875
N890 G1 F100 X0.582044 Y-0.638796 Z-0.036875
N891 G1 F100 X0.591283 Y-0.634969 Z-0.036562
N892 G1 F100 X0.600522 Y-0.631142 Z-0.036875
N893 G1 F100 X0.609760 Y-0.627315 Z-0.037812
N894 G1 F100 X0.618999 Y-0.623489 Z-0.039062
N895 G1 F100 X0.628238 Y-0.619662 Z-0.041250
N896 G1 F100 X0.637477 Y-0.615835 Z-0.040000
N897 G1 F100 X0.646716 Y-0.612008 Z-0.038125
N898 G1 F100 X0.655954 Y-0.608181 Z-0.036250
N899 G1 F100 X0.665193 Y-0.604354 Z-0.035000
N900 G1 F100 X0.674432 Y-0.600528 Z-0.034063
N901 G1 F100 X0.683671 Y-0.596701 Z-0.033125
N902 G1 F100 X0.692910 Y-0.592874 Z-0.032188
N903 G1 F100 X0.702148 Y-0.589047 Z-0.032188
N904 G1 F100 X0.711387 Y-0.585220 Z-0.032188
N905 G1 F100 X0.720626 Y-0.581393 Z-0.031875
N906 G1 F100 X0.729865 Y-0.577567 Z-0.031563
N907 G1 F100 X0.739104 Y-0.573740 Z-0.031563
N908 G1 F100 X0.748342 Y-0.569913 Z-0.031250
N909 G1 F100 X0.757581 Y-0.566086 Z-0.031250
N910 G1 F100 X0.766820 Y-0.562259 Z-0.030937
N911 G1 F100 X0.776059 Y-0.558432 Z-0.030937
N912 G1 F100 X0.785298 Y-0.554606 Z-0.032500
N913 G1 F100 X0.794536 Y-0.550779 Z-0.032813
N914 G1 F100 X0.803775 Y-0.546952 Z-0.033438
N915 G1 F100 X0.813014 Y-0.543125 Z-0.034063
N916 G1 F100 X0.822253 Y-0.539298 Z-0.034063
N917 G1 F100 X0.831492 Y-0.535471 Z-0.033750
N918 G1 F100 X0.840730 Y-0.531645 Z-0.033750
N919 G1 F100 X0.849969 Y-0.527818 Z-0.034063
N920 G1 F100 X0.859208 Y-0.523991 Z-0.034375
N921 G1 F100 X0.868447 Y-0.520164 Z-0.034688
N922 G1 F100 X0.877686 Y-0.516337 Z-0.034375
N923 G1 F100 X0.886924 Y-0.512510 Z-0.034688
N924 G1 F100 X0.896163 Y-0.508684 Z-0.035000
N925 G1 F100 X0.905402 Y-0.504857 Z-0.035313
N926 G1 F100 X0.914641 Y-0.501030 Z-0.035625
N927 G1 F100 X0.923880 Y-0.497203 Z-0.036250
N928 G1 F100 X0.933118 Y-0.493376 Z-0.036875
N929 G1 F100 X0.942357 Y-0.489549 Z-0.036875
N930 G1 F100 X0.951596 Y-0.485723 Z-0.036875
N931 G1 F100 X0.960835 Y-0.481896 Z-0.036562
N932 G1 F100 X0.970074 Y-0.478069 Z-0.035938
N933 G1 F100 X0.979312 Y-0.474242 Z-0.035313
N934 G1 F100 X0.988551 Y-0.470415 Z-0.035000
N935 G1 F100 X0.997790 Y-0.466588 Z-0.033750
N936 G1 F100 X1.007029 Y-0.462762 Z-0.031875
N937 G1 F100 X1.016267 Y-0.458935 Z-0.031563
N938 G1 F100 X1.025506 Y-0.455108 Z-0.031250
N939 G1 F100 X1.034745 Y-0.451281 Z-0.030937
N940 G1 F100 X1.043984 Y-0.447454 Z-0.030625
N941 G1 F100 X1.053223 Y-0.443627 Z-0.030937
N942 G1 F100 X1.062461 Y-0.439801 Z-0.030937
N943 G1 F100 X1.071700 Y-0.435974 Z-0.030937
N944 G1 F100 X1.080939 Y-0.432147 Z-0.030625
N945 G1 F100 X1.090178 Y-0.428320 Z-0.030625
N946 G1 F100 X1.099417 Y-0.424493 Z-0.031250
N947 G1 F100 X1.108655 Y-0.420666 Z-0.031250
N948 G1 F100 X1.117894 Y-0.416840 Z-0.031250
N949 G1 F100 X1.127133 Y-0.413013 Z-0.031875
N950 G1 F100 X1.136372 Y-0.409186 Z-0.032813
N951 G1 F100 X1.145611 Y-0.405359 Z-0.033438
N952 G1 F100 X1.154849 Y-0.401532 Z-0.034063
N953 G1 F100 X1.164088 Y-0.397705 Z-0.034063
N954 G1 F100 X1.173327 Y-0.393879 Z-0.034688
N955 G1 F100 X1.182566 Y-0.390052 Z-0.034375
N956 G1 F100 X1.191805 Y-0.386225 Z-0.034063
N957 G1 F100 X1.201043 Y-0.382398 Z-0.034688
N958 G1 F100 X1.210282 Y-0.378571 Z-0.035000
N959 G1 F100 X1.219521 Y-0.374744 Z-0.034688
N960 G1 F100 X1.228760 Y-0.370918 Z-0.034063
N961 G1 F100 X1.237999 Y-0.367091 Z-0.033438
N962 G1 F100 X1.247237 Y-0.363264 Z-0.033750
N963 G1 F100 X1.256476 Y-0.359437 Z-0.033750
N964 G1 F100 X1.265715 Y-0.355610 Z-0.033125
N965 G1 F100 X1.274954 Y-0.351783 Z-0.032188
N966 G1 F100 X1.284193 Y-0.347957 Z-0.032188
N967 G1 F100 X1.293431 Y-0.344130 Z-0.032813
N968 G1 F100 X1.302670 Y-0.340303 Z-0.033125
N969 G1 F100 X1.311909 Y-0.336476 Z-0.033125
N970 G1 F100 X1.321148 Y-0.332649 Z-0.032500
N971 G1 F100 X1.330387 Y-0.328822 Z-0.032188
N972 G1 F100 X1.339625 Y-0.324996 Z-0.032188
N973 G1 F100 X1.348864 Y-0.321169 Z-0.032188
N974 G1 F100 X1.358103 Y-0.317342 Z-0.032500
N975 G1 F100 X1.367342 Y-0.313515 Z-0.033125
N976 G1 F100 X1.376581 Y-0.309688 Z-0.034063
N977 G1 F100 X1.385819 Y-0.305861 Z-0.034688
N978 G1 F100 X1.395058 Y-0.302035 Z-0.034688
N979 G1 F100 X1.404297 Y-0.298208 Z-0.035000
N980 G1 F100 X1.413536 Y-0.294381 Z-0.035625
N981 G1 F100 X1.422774 Y-0.290554 Z-0.035938
N982 G1 F100 X1.432013 Y-0.286727 Z-0.035938
N983 G1 F100 X1.441252 Y-0.282900 Z-0.036562
N984 G1 F100 X1.450491 Y-0.279074 Z-0.037500
N985 G1 F100 X1.459730 Y-0.275247 Z-0.038437
N986 G1 F100 X1.468968 Y-0.271420 Z-0.039688
N987 G1 F100 X1.478207 Y-0.267593 Z-0.040625
N988 G1 F100 X1.487446 Y-0.263766 Z-0.041563
N989 G1 F100 X1.496685 Y-0.259939 Z-0.041563
N990 G1 F100 X1.505924 Y-0.256113 Z-0.041875
N991 G1 F100 X1.515162 Y-0.252286 Z-0.041875
N992 G1 F100 X1.524401 Y-0.248459 Z-0.041563
N993 G1 F100 X1.533640 Y-0.244632 Z-0.040938
N994 G1 F100 X1.542879 Y-0.240805 Z-0.040000
N995 G1 F100 X1.552118 Y-0.236978 Z-0.038750
N996 G1 F100 X1.561356 Y-0.233152 Z-0.038125
N997 G1 F100 X1.570595 Y-0.229325 Z-0.037812
N998 G1 F100 X1.579834 Y-0.225498 Z-0.036875
N999 G1 F100 X1.589073 Y-0.221671 Z-0.035938
N1000 G1 F100 X1.598312 Y-0.217844 Z-0.035938
N1001 G1 F100 X1.607550 Y-0.214017 Z-0.036250
N1002 G1 F100 X1.616789 Y-0.210191 Z-0.036875
N1003 G1 F100 X1.626028 Y-0.206364 Z-0.036875
N1004 G1 F100 X1.635267 Y-0.202537 Z-0.036875
N1005 G1 F100 X1.644506 Y-0.198710 Z-0.038750
N1006 G1 F100 X1.653744 Y-0.194883 Z-0.039375
N1007 G1 F100 X1.662983 Y-0.191056 Z-0.039688
N1008 G1 F100 X1.672222 Y-0.187230 Z-0.040938
N1009 G1 F100 X1.681461 Y-0.183403 Z-0.042813
N1010 G1 F100 X1.690700 Y-0.179576 Z-0.044375
N1011 G1 F100 X1.699938 Y-0.175749 Z-0.045312
N1012 G1 F100 X1.709177 Y-0.171922 Z-0.045000
N1013 G1 F100 X1.718416 Y-0.168095 Z-0.045625
N1014 G1 F100 X1.727655 Y-0.164269 Z-0.046875
N1015 G1 F100 X1.736894 Y-0.160442 Z-0.046875
N1016 G1 F100 X1.746132 Y-0.156615 Z-0.045625
N1017 G1 F100 X1.755371 Y-0.152788 Z-0.044062
N1018 G1 F100 X1.764610 Y-0.148961 Z-0.044062
N1019 G1 F100 X1.773849 Y-0.145134 Z-0.044375
N1020 G1 F100 X1.783087 Y-0.141308 Z-0.043750
N1021 G1 F100 X1.792326 Y-0.137481 Z-0.043125
N1022 G1 F100 X1.801565 Y-0.133654 Z-0.043750
N1023 G1 F100 X1.810804 Y-0.129827 Z-0.043750
N1024 G1 F100 X1.820043 Y-0.126000 Z-0.042813
N1025 G1 F100 X1.829281 Y-0.122173 Z-0.042813
N1026 G1 F100 X1.838520 Y-0.118347 Z-0.042500
N1027 G1 F100 X1.847759 Y-0.114520 Z-0.042188
N1028 G1 F100 X1.856998 Y-0.110693 Z-0.042500
N1029 G1 F100 X1.866237 Y-0.106866 Z-0.042188
N1030 G1 F100 X1.875475 Y-0.103039 Z-0.041875
N1031 G1 F100 X1.884714 Y-0.099212 Z-0.041563
N1032 G1 F100 X1.893953 Y-0.095386 Z-0.040625
N1033 G1 F100 X1.903192 Y-0.091559 Z-0.040625
N1034 G1 F100 X1.912431 Y-0.087732 Z-0.041250
N1035 G1 F100 X1.921669 Y-0.083905 Z-0.041563
N1036 G1 F100 X1.930908 Y-0.080078 Z-0.041875
N1037 G1 F100 X1.940147 Y-0.076251 Z-0.040938
N1038 G1 F100 X1.949386 Y-0.072425 Z-0.040000
N1039 G1 F100 X1.958625 Y-0.068598 Z-0.040625
N1040 G1 F100 X1.967863 Y-0.064771 Z-0.040938
N1041 G1 F100 X1.977102 Y-0.060944 Z-0.041250
N1042 G1 F100 X1.986341 Y-0.057117 Z-0.041563
N1043 G1 F100 X1.995580 Y-0.053290 Z-0.041563
N1044 G1 F100 X2.004819 Y-0.049464 Z-0.041563
N1045 G1 F100 X2.014057 Y-0.045637 Z-0.041250
N1046 G1 F100 X2.023296 Y-0.041810 Z-0.041250
N1047 G1 F100 X2.032535 Y-0.037983 Z-0.040938
N1048 G1 F100 X2.041774 Y-0.034156 Z-0.040938
N1049 G1 F100 X2.051013 Y-0.030329 Z-0.040938
N1050 G1 F100 X2.060251 Y-0.026503 Z-0.040938
N1051 G1 F100 X2.069490 Y-0.022676 Z-0.040938
N1052 G1 F100 X2.078729 Y-0.018849 Z-0.040625
N1053 G1 F100 X2.087968 Y-0.015022 Z-0.040625
N1054 G1 F100 X2.097207 Y-0.011195 Z-0.040625
N1055 G1 F100 X2.106445 Y-0.007368 Z-0.040938
N1056 G1 F100 X2.115684 Y-0.003541 Z-0.041875
N1057 G1 F10 Z0.200000
N1058 G0 X2.381213 Y-0.003541
N1059 G1 F10 X2.381213 Y-0.003541 Z-0.040000
N1060 G1 F100 X2.371975 Y-0.007368 Z-0.040000
N1061 G1 F100 X2.362736 Y-0.011195 Z-0.040000
N1062 G1 F100 X2.353497 Y-0.015022 Z-0.040313
N1063 G1 F100 X2.344258 Y-0.018849 Z-0.040625
N1064 G1 F100 X2.335019 Y-0.022676 Z-0.040313
N1065 G1 F100 X2.325781 Y-0.026503 Z-0.040625
N1066 G1 F100 X2.316542 Y-0.030329 Z-0.040313
N1067 G1 F100 X2.307303 Y-0.034156 Z-0.040000
N1068 G1 F100 X2.298064 Y-0.037983 Z-0.040000
N1069 G1 F100 X2.288825 Y-0.041810 Z-0.040000
N1070 G1 F100 X2.279587 Y-0.045637 Z-0.040000
N1071 G1 F100 X2.270348 Y-0.049464 Z-0.039688
N1072 G1 F100 X2.261109 Y-0.053290 Z-0.039062
N1073 G1 F100 X2.251870 Y-0.057117 Z-0.038750
N1074 G1 F100 X2.242631 Y-0.060944 Z-0.038750
N1075 G1 F100 X2.233393 Y-0.064771 Z-0.039062
N1076 G1 F100 X2.224154 Y-0.068598 Z-0.039062
N1077 G1 F100 X2.214915 Y-0.072425 Z-0.039688
N1078 G1 F100 X2.205676 Y-0.076251 Z-0.039688
N1079 G1 F100 X2.196437 Y-0.080078 Z-0.039688
N1080 G1 F100 X2.187199 Y-0.083905 Z-0.039688
N1081 G1 F100 X2.177960 Y-0.087732 Z-0.039375
N1082 G1 F100 X2.168721 Y-0.091559 Z-0.039375
N1083 G1 F100 X2.159482 Y-0.095386 Z-0.039688
N1084 G1 F100 X2.150244 Y-0.099212 Z-0.040000
N1085 G1 F100 X2.141005 Y-0.103039 Z-0.040313
N1086 G1 F100 X2.131766 Y-0.106866 Z-0.040313
N1087 G1 F100 X2.122527 Y-0.110693 Z-0.040313
N1088 G1 F100 X2.113288 Y-0.114520 Z-0.040313
N1089 G1 F100 X2.104050 Y-0.118347 Z-0.040938
N1090 G1 F100 X2.094811 Y-0.122173 Z-0.040938
N1091 G1 F100 X2.085572 Y-0.126000 Z-0.040938
N1092 G1 F100 X2.076333 Y-0.129827 Z-0.040625
N1093 G1 F100 X2.067094 Y-0.133654 Z-0.040625
N1094 G1 F100 X2.057856 Y-0.137481 Z-0.040313
N1095 G1 F100 X2.048617 Y-0.141308 Z-0.040000
N1096 G1 F100 X2.039378 Y-0.145134 Z-0.040000
N1097 G1 F100 X2.030139 Y-0.148961 Z-0.038750
N1098 G1 F100 X2.020900 Y-0.152788 Z-0.038125
N1099 G1 F100 X2.011662 Y-0.156615 Z-0.037500
N1100 G1 F100 X2.002423 Y-0.160442 Z-0.037187
N1101 G1 F100 X1.993184 Y-0.164269 Z-0.037187
N1102 G1 F100 X1.983945 Y-0.168095 Z-0.037500
N1103 G1 F100 X1.974706 Y-0.171922 Z-0.037812
N1104 G1 F100 X1.965468 Y-0.175749 Z-0.037812
N1105 G1 F100 X1.956229 Y-0.179576 Z-0.037812
N1106 G1 F100 X1.946990 Y-0.183403 Z-0.037187
N1107 G1 F100 X1.937751 Y-0.187230 Z-0.036562
N1108 G1 F100 X1.928512 Y-0.191056 Z-0.036562
N1109 G1 F100 X1.919274 Y-0.194883 Z-0.036875
N1110 G1 F100 X1.910035 Y-0.198710 Z-0.037187
N1111 G1 F100 X1.900796 Y-0.202537 Z-0.037187
N1112 G1 F100 X1.891557 Y-0.206364 Z-0.037500
N1113 G1 F100 X1.882318 Y-0.210191 Z-0.038125
N1114 G1 F100 X1.873080 Y-0.214017 Z-0.038125
N1115 G1 F100 X1.863841 Y-0.217844 Z-0.038125
N1116 G1 F100 X1.854602 Y-0.221671 Z-0.038125
N1117 G1 F100 X1.845363 Y-0.225498 Z-0.037500
N1118 G1 F100 X1.836124 Y-0.229325 Z-0.036562
N1119 G1 F100 X1.826886 Y-0.233152 Z-0.036562
N1120 G1 F100 X1.817647 Y-0.236978 Z-0.037812
N1121 G1 F100 X1.808408 Y-0.240805 Z-0.039688
N1122 G1 F100 X1.799169 Y-0.244632 Z-0.040000
N1123 G1 F100 X1.789930 Y-0.248459 Z-0.039062
N1124 G1 F100 X1.780692 Y-0.252286 Z-0.039375
N1125 G1 F100 X1.771453 Y-0.256113 Z-0.039688
N1126 G1 F100 X1.762214 Y-0.259939 Z-0.039062
N1127 G1 F100 X1.752975 Y-0.263766 Z-0.039375
N1128 G1 F100 X1.743737 Y-0.267593 Z-0.040625
N1129 G1 F100 X1.734498 Y-0.271420 Z-0.041250
N1130 G1 F100 X1.725259 Y-0.275247 Z-0.041563
N1131 G1 F100 X1.716020 Y-0.279074 Z-0.041563
N1132 G1 F100 X1.706781 Y-0.282900 Z-0.041250
N1133 G1 F100 X1.697543 Y-0.286727 Z-0.040000
N1134 G1 F100 X1.688304 Y-0.290554 Z-0.039062
N1135 G1 F100 X1.679065 Y-0.294381 Z-0.039375
N1136 G1 F100 X1.669826 Y-0.298208 Z-0.040313
N1137 G1 F100 X1.660587 Y-0.302035 Z-0.040313
N1138 G1 F100 X1.651349 Y-0.305861 Z-0.038750
N1139 G1 F100 X1.642110 Y-0.309688 Z-0.036562
N1140 G1 F100 X1.632871 Y-0.313515 Z-0.035625
N1141 G1 F100 X1.623632 Y-0.317342 Z-0.035625
N1142 G1 F100 X1.614393 Y-0.321169 Z-0.035313
N1143 G1 F100 X1.605155 Y-0.324996 Z-0.035000
N1144 G1 F100 X1.595916 Y-0.328822 Z-0.035000
N1145 G1 F100 X1.586677 Y-0.332649 Z-0.035313
N1146 G1 F100 X1.577438 Y-0.336476 Z-0.035625
N1147 G1 F100 X1.568199 Y-0.340303 Z-0.035625
N1148 G1 F100 X1.558961 Y-0.344130 Z-0.035938
N1149 G1 F100 X1.549722 Y-0.347957 Z-0.036562
N1150 G1 F100 X1.540483 Y-0.351783 Z-0.036875
N1151 G1 F100 X1.531244 Y-0.355610 Z-0.037500
N1152 G1 F100 X1.522005 Y-0.359437 Z-0.037500
N1153 G1 F100 X1.512767 Y-0.363264 Z-0.037187
N1154 G1 F100 X1.503528 Y-0.367091 Z-0.037500
N1155 G1 F100 X1.494289 Y-0.370918 Z-0.037187
N1156 G1 F100 X1.485050 Y-0.374744 Z-0.036875
N1157 G1 F100 X1.475811 Y-0.378571 Z-0.036875
N1158 G1 F100 X1.466573 Y-0.382398 Z-0.037187
N1159 G1 F100 X1.457334 Y-0.386225 Z-0.037500
N1160 G1 F100 X1.448095 Y-0.390052 Z-0.037500
N1161 G1 F100 X1.438856 Y-0.393879 Z-0.037187
N1162 G1 F100 X1.429617 Y-0.397705 Z-0.036875
N1163 G1 F100 X1.420379 Y-0.401532 Z-0.036875
N1164 G1 F100 X1.411140 Y-0.405359 Z-0.037187
N1165 G1 F100 X1.401901 Y-0.409186 Z-0.036562
N1166 G1 F100 X1.392662 Y-0.413013 Z-0.036562
N1167 G1 F100 X1.383423 Y-0.416840 Z-0.036562
N1168 G1 F100 X1.374185 Y-0.420666 Z-0.036562
N1169 G1 F100 X1.364946 Y-0.424493 Z-0.036875
N1170 G1 F100 X1.355707 Y-0.428320 Z-0.036562
N1171 G1 F100 X1.346468 Y-0.432147 Z-0.036250
N1172 G1 F100 X1.337230 Y-0.435974 Z-0.035938
N1173 G1 F100 X1.327991 Y-0.439801 Z-0.035625
N1174 G1 F100 X1.318752 Y-0.443627 Z-0.035313
N1175 G1 F100 X1.309513 Y-0.447454 Z-0.034375
N1176 G1 F100 X1.300274 Y-0.451281 Z-0.033750
N1177 G1 F100 X1.291036 Y-0.455108 Z-0.033438
N1178 G1 F100 X1.281797 Y-0.458935 Z-0.033750
N1179 G1 F100 X1.272558 Y-0.462762 Z-0.034063
N1180 G1 F100 X1.263319 Y-0.466588 Z-0.033125
N1181 G1 F100 X1.254080 Y-0.470415 Z-0.032500
N1182 G1 F100 X1.244842 Y-0.474242 Z-0.033125
N1183 G1 F100 X1.235603 Y-0.478069 Z-0.032813
N1184 G1 F100 X1.226364 Y-0.481896 Z-0.032813
N1185 G1 F100 X1.217125 Y-0.485723 Z-0.033125
N1186 G1 F100 X1.207886 Y-0.489549 Z-0.033125
N1187 G1 F100 X1.198648 Y-0.493376 Z-0.033750
N1188 G1 F100 X1.189409 Y-0.497203 Z-0.034375
N1189 G1 F100 X1.180170 Y-0.501030 Z-0.035000
N1190 G1 F100 X1.170931 Y-0.504857 Z-0.034375
N1191 G1 F100 X1.161692 Y-0.508684 Z-0.033438
N1192 G1 F100 X1.152454 Y-0.512510 Z-0.033125
N1193 G1 F100 X1.143215 Y-0.516337 Z-0.032813
N1194 G1 F100 X1.133976 Y-0.520164 Z-0.032813
N1195 G1 F100 X1.124737 Y-0.523991 Z-0.032813
N1196 G1 F100 X1.115498 Y-0.527818 Z-0.032188
N1197 G1 F100 X1.106260 Y-0.531645 Z-0.031563
N1198 G1 F100 X1.097021 Y-0.535471 Z-0.030937
N1199 G1 F100 X1.087782 Y-0.539298 Z-0.030625
N1200 G1 F100 X1.078543 Y-0.543125 Z-0.030625
N1201 G1 F100 X1.069304 Y-0.546952 Z-0.031250
N1202 G1 F100 X1.060066 Y-0.550779 Z-0.031563
N1203 G1 F100 X1.050827 Y-0.554606 Z-0.031875
N1204 G1 F100 X1.041588 Y-0.558432 Z-0.032500
N1205 G1 F100 X1.032349 Y-0.562259 Z-0.033125
N1206 G1 F100 X1.023110 Y-0.566086 Z-0.034063
N1207 G1 F100 X1.013872 Y-0.569913 Z-0.034063
N1208 G1 F100 X1.004633 Y-0.573740 Z-0.034063
N1209 G1 F100 X0.995394 Y-0.577567 Z-0.034375
N1210 G1 F100 X0.986155 Y-0.581393 Z-0.034688
N1211 G1 F100 X0.976916 Y-0.585220 Z-0.035000
N1212 G1 F100 X0.967678 Y-0.589047 Z-0.035000
N1213 G1 F100 X0.958439 Y-0.592874 Z-0.035313
N1214 G1 F100 X0.949200 Y-0.596701 Z-0.035313
N1215 G1 F100 X0.939961 Y-0.600528 Z-0.035000
N1216 G1 F100 X0.930723 Y-0.604354 Z-0.034375
N1217 G1 F100 X0.921484 Y-0.608181 Z-0.034063
N1218 G1 F100 X0.912245 Y-0.612008 Z-0.033438
N1219 G1 F100 X0.903006 Y-0.615835 Z-0.033125
N1220 G1 F100 X0.893767 Y-0.619662 Z-0.032813
N1221 G1 F100 X0.884529 Y-0.623489 Z-0.032188
N1222 G1 F100 X0.875290 Y-0.627315 Z-0.031250
N1223 G1 F100 X0.866051 Y-0.631142 Z-0.030937
N1224 G1 F100 X0.856812 Y-0.634969 Z-0.031250
N1225 G1 F100 X0.847573 Y-0.638796 Z-0.032188
N1226 G1 F100 X0.838335 Y-0.642623 Z-0.032500
N1227 G1 F100 X0.829096 Y-0.646450 Z-0.033125
N1228 G1 F100 X0.819857 Y-0.650276 Z-0.033750
N1229 G1 F100 X0.810618 Y-0.654103 Z-0.034375
N1230 G1 F100 X0.801379 Y-0.657930 Z-0.035313
N1231 G1 F100 X0.792141 Y-0.661757 Z-0.035625
N1232 G1 F100 X0.782902 Y-0.665584 Z-0.035938
N1233 G1 F100 X0.773663 Y-0.669411 Z-0.036875
N1234 G1 F100 X0.764424 Y-0.673238 Z-0.037187
N1235 G1 F100 X0.755185 Y-0.677064 Z-0.037500
N1236 G1 F100 X0.745947 Y-0.680891 Z-0.037812
N1237 G1 F100 X0.736708 Y-0.684718 Z-0.038125
N1238 G1 F100 X0.727469 Y-0.688545 Z-0.038437
N1239 G1 F100 X0.718230 Y-0.692372 Z-0.038437
N1240 G1 F100 X0.708991 Y-0.696199 Z-0.038750
N1241 G1 F100 X0.699753 Y-0.700025 Z-0.038437
N1242 G1 F100 X0.690514 Y-0.703852 Z-0.037812
N1243 G1 F100 X0.681275 Y-0.707679 Z-0.037500
N1244 G1 F100 X0.672036 Y-0.711506 Z-0.037187
N1245 G1 F100 X0.662797 Y-0.715333 Z-0.036875
N1246 G1 F100 X0.653559 Y-0.719160 Z-0.036250
N1247 G1 F100 X0.644320 Y-0.722986 Z-0.035625
N1248 G1 F100 X0.635081 Y-0.726813 Z-0.035313
N1249 G1 F100 X0.625842 Y-0.730640 Z-0.034375
N1250 G1 F100 X0.616603 Y-0.734467 Z-0.034375
N1251 G1 F100 X0.607365 Y-0.738294 Z-0.034375
N1252 G1 F100 X0.598126 Y-0.742121 Z-0.034063
N1253 G1 F100 X0.588887 Y-0.745947 Z-0.034063
N1254 G1 F100 X0.579648 Y-0.749774 Z-0.033750
N1255 G1 F100 X0.570410 Y-0.753601 Z-0.033750
N1256 G1 F100 X0.561171 Y-0.757428 Z-0.033125
N1257 G1 F100 X0.551932 Y-0.761255 Z-0.032500
N1258 G1 F100 X0.542693 Y-0.765082 Z-0.033438
N1259 G1 F100 X0.533454 Y-0.768908 Z-0.034063
N1260 G1 F100 X0.524216 Y-0.772735 Z-0.034688
N1261 G1 F100 X0.514977 Y-0.776562 Z-0.035000
N1262 G1 F100 X0.505738 Y-0.780389 Z-0.035938
N1263 G1 F100 X0.496499 Y-0.784216 Z-0.036250
N1264 G1 F100 X0.487260 Y-0.788043 Z-0.037187
N1265 G1 F100 X0.478022 Y-0.791869 Z-0.037812
N1266 G1 F100 X0.468783 Y-0.795696 Z-0.038437
N1267 G1 F100 X0.459544 Y-0.799523 Z-0.037812
N1268 G1 F100 X0.450305 Y-0.803350 Z-0.037187
N1269 G1 F100 X0.441066 Y-0.807177 Z-0.036562
N1270 G1 F100 X0.431828 Y-0.811004 Z-0.036250
N1271 G1 F100 X0.422589 Y-0.814830 Z-0.036562
N1272 G1 F100 X0.413350 Y-0.818657 Z-0.036562
N1273 G1 F100 X0.404111 Y-0.822484 Z-0.036250
N1274 G1 F100 X0.394872 Y-0.826311 Z-0.035938
N1275 G1 F100 X0.385634 Y-0.830138 Z-0.035938
N1276 G1 F100 X0.376395 Y-0.833965 Z-0.035938
N1277 G1 F100 X0.367156 Y-0.837791 Z-0.035938
N1278 G1 F100 X0.357917 Y-0.841618 Z-0.035625
N1279 G1 F100 X0.348678 Y-0.845445 Z-0.035313
N1280 G1 F100 X0.339440 Y-0.849272 Z-0.035000
N1281 G1 F100 X0.330201 Y-0.853099 Z-0.035000
N1282 G1 F100 X0.320962 Y-0.856926 Z-0.035313
N1283 G1 F100 X0.311723 Y-0.860752 Z-0.035313
N1284 G1 F100 X0.302484 Y-0.864579 Z-0.035000
N1285 G1 F100 X0.293246 Y-0.868406 Z-0.035000
N1286 G1 F100 X0.284007 Y-0.872233 Z-0.035000
N1287 G1 F100 X0.274768 Y-0.876060 Z-0.035313
N1288 G1 F100 X0.265529 Y-0.879887 Z-0.035313
N1289 G1 F100 X0.256290 Y-0.883713 Z-0.035313
N1290 G1 F100 X0.247052 Y-0.887540 Z-0.034688
N1291 G1 F100 X0.237813 Y-0.891367 Z-0.034375
N1292 G1 F100 X0.228574 Y-0.895194 Z-0.033438
N1293 G1 F100 X0.219335 Y-0.899021 Z-0.033125
N1294 G1 F100 X0.210096 Y-0.902848 Z-0.032813
N1295 G1 F100 X0.200858 Y-0.906674 Z-0.032500
N1296 G1 F100 X0.191619 Y-0.910501 Z-0.032188
N1297 G1 F100 X0.182380 Y-0.914328 Z-0.031563
N1298 G1 F100 X0.173141 Y-0.918155 Z-0.031563
N1299 G1 F100 X0.163903 Y-0.921982 Z-0.031250
N1300 G1 F100 X0.154664 Y-0.925809 Z-0.030625
N1301 G1 F100 X0.145425 Y-0.929635 Z-0.030312
N1302 G1 F100 X0.136186 Y-0.933462 Z-0.030625
N1303 G1 F100 X0.126947 Y-0.937289 Z-0.030937
N1304 G1 F100 X0.117709 Y-0.941116 Z-0.031250
N1305 G1 F100 X0.108470 Y-0.944943 Z-0.030937
N1306 G1 F100 X0.099231 Y-0.948770 Z-0.031250
N1307 G1 F100 X0.089992 Y-0.952596 Z-0.030937
N1308 G1 F100 X0.080753 Y-0.956423 Z-0.030937
N1309 G1 F100 X0.071515 Y-0.960250 Z-0.031875
N1310 G1 F100 X0.062276 Y-0.964077 Z-0.031563
N1311 G1 F100 X0.053037 Y-0.967904 Z-0.031250
N1312 G1 F100 X0.043798 Y-0.971731 Z-0.031250
N1313 G1 F100 X0.034559 Y-0.975557 Z-0.031250
N1314 G1 F100 X0.025321 Y-0.979384 Z-0.031563
N1315 G1 F100 X0.016082 Y-0.983211 Z-0.032500
N1316 G1 F100 X0.006843 Y-0.987038 Z-0.033125
N1317 G1 F10 Z0.200000
N1318 G0 X0.000000 Y-1.099858
N1319 G1 F10 X0.000000 Y-1.099858 Z-0.033750
N1320 G1 F100 X0.009239 Y-1.096031 Z-0.034063
N1321 G1 F100 X0.018478 Y-1.092205 Z-0.034063
N1322 G1 F100 X0.027716 Y-1.088378 Z-0.034063
N1323 G1 F100 X0.036955 Y-1.084551 Z-0.034063
N1324 G1 F100 X0.046194 Y-1.080724 Z-0.034375
N1325 G1 F100 X0.055433 Y-1.076897 Z-0.034375
N1326 G1 F100 X0.064672 Y-1.073070 Z-0.034375
N1327 G1 F100 X0.073910 Y-1.069244 Z-0.034688
N1328 G1 F100 X0.083149 Y-1.065417 Z-0.035000
N1329 G1 F100 X0.092388 Y-1.061590 Z-0.034688
N1330 G1 F100 X0.101627 Y-1.057763 Z-0.034688
N1331 G1 F100 X0.110866 Y-1.053936 Z-0.034375
N1332 G1 F100 X0.120104 Y-1.050109 Z-0.034375
N1333 G1 F100 X0.129343 Y-1.046283 Z-0.034375
N1334 G1 F100 X0.138582 Y-1.042456 Z-0.034375
N1335 G1 F100 X0.147821 Y-1.038629 Z-0.034375
N1336 G1 F100 X0.157060 Y-1.034802 Z-0.034375
N1337 G1 F100 X0.166298 Y-1.030975 Z-0.034375
N1338 G1 F100 X0.175537 Y-1.027148 Z-0.033750
N1339 G1 F100 X0.184776 Y-1.023322 Z-0.034063
N1340 G1 F100 X0.194015 Y-1.019495 Z-0.034375
N1341 G1 F100 X0.203253 Y-1.015668 Z-0.035313
N1342 G1 F100 X0.212492 Y-1.011841 Z-0.036250
N1343 G1 F100 X0.221731 Y-1.008014 Z-0.036562
N1344 G1 F100 X0.230970 Y-1.004187 Z-0.036875
N1345 G1 F100 X0.240209 Y-1.000361 Z-0.037500
N1346 G1 F100 X0.249447 Y-0.996534 Z-0.037187
N1347 G1 F100 X0.258686 Y-0.992707 Z-0.037812
N1348 G1 F100 X0.267925 Y-0.988880 Z-0.038437
N1349 G1 F100 X0.277164 Y-0.985053 Z-0.038750
N1350 G1 F100 X0.286403 Y-0.981226 Z-0.038750
N1351 G1 F100 X0.295641 Y-0.977399 Z-0.038125
N1352 G1 F100 X0.304880 Y-0.973573 Z-0.038125
N1353 G1 F100 X0.314119 Y-0.969746 Z-0.038125
N1354 G1 F100 X0.323358 Y-0.965919 Z-0.037500
N1355 G1 F100 X0.332597 Y-0.962092 Z-0.036875
N1356 G1 F100 X0.341835 Y-0.958265 Z-0.036250
N1357 G1 F100 X0.351074 Y-0.954438 Z-0.035625
N1358 G1 F100 X0.360313 Y-0.950612 Z-0.035313
N1359 G1 F100 X0.369552 Y-0.946785 Z-0.034688
N1360 G1 F100 X0.378791 Y-0.942958 Z-0.034375
N1361 G1 F100 X0.388029 Y-0.939131 Z-0.034063
N1362 G1 F100 X0.397268 Y-0.935304 Z-0.034688
N1363 G1 F100 X0.406507 Y-0.931477 Z-0.035000
N1364 G1 F100 X0.415746 Y-0.927651 Z-0.035000
N1365 G1 F100 X0.424985 Y-0.923824 Z-0.035313
N1366 G1 F100 X0.434223 Y-0.919997 Z-0.035313
N1367 G1 F100 X0.443462 Y-0.916170 Z-0.035313
N1368 G1 F100 X0.452701 Y-0.912343 Z-0.035625
N1369 G1 F100 X0.461940 Y-0.908516 Z-0.035625
N1370 G1 F100 X0.471179 Y-0.904690 Z-0.035625
N1371 G1 F100 X0.480417 Y-0.900863 Z-0.034688
N1372 G1 F100 X0.489656 Y-0.897036 Z-0.034063
N1373 G1 F100 X0.498895 Y-0.893209 Z-0.033438
N1374 G1 F100 X0.508134 Y-0.889382 Z-0.033438
N1375 G1 F100 X0.517373 Y-0.885555 Z-0.033125
N1376 G1 F100 X0.526611 Y-0.881729 Z-0.032500
N1377 G1 F100 X0.535850 Y-0.877902 Z-0.032188
N1378 G1 F100 X0.545089 Y-0.874075 Z-0.032188
N1379 G1 F100 X0.554328 Y-0.870248 Z-0.031875
N1380 G1 F100 X0.563567 Y-0.866421 Z-0.031563
N1381 G1 F100 X0.572805 Y-0.862594 Z-0.030937
N1382 G1 F100 X0.582044 Y-0.858768 Z-0.030000
N1383 G1 F100 X0.591283 Y-0.854941 Z-0.029063
N1384 G1 F100 X0.600522 Y-0.851114 Z-0.028750
N1385 G1 F100 X0.609760 Y-0.847287 Z-0.029063
N1386 G1 F100 X0.618999 Y-0.843460 Z-0.029688
N1387 G1 F100 X0.628238 Y-0.839633 Z-0.029688
N1388 G1 F100 X0.637477 Y-0.835807 Z-0.029688
N1389 G1 F100 X0.646716 Y-0.831980 Z-0.030000
N1390 G1 F100 X0.655954 Y-0.828153 Z-0.029688
N1391 G1 F100 X0.665193 Y-0.824326 Z-0.029375
N1392 G1 F100 X0.674432 Y-0.820499 Z-0.029375
N1393 G1 F100 X0.683671 Y-0.816672 Z-0.029375
N1394 G1 F100 X0.692910 Y-0.812846 Z-0.029688
N1395 G1 F100 X0.702148 Y-0.809019 Z-0.030625
N1396 G1 F100 X0.711387 Y-0.805192 Z-0.031250
N1397 G1 F100 X0.720626 Y-0.801365 Z-0.031875
N1398 G1 F100 X0.729865 Y-0.797538 Z-0.032500
N1399 G1 F100 X0.739104 Y-0.793711 Z-0.032813
N1400 G1 F100 X0.748342 Y-0.789885 Z-0.033438
N1401 G1 F100 X0.757581 Y-0.786058 Z-0.034063
N1402 G1 F100 X0.766820 Y-0.782231 Z-0.034688
N1403 G1 F100 X0.776059 Y-0.778404 Z-0.034375
N1404 G1 F100 X0.785298 Y-0.774577 Z-0.034688
N1405 G1 F100 X0.794536 Y-0.770750 Z-0.033750
N1406 G1 F100 X0.803775 Y-0.766924 Z-0.032500
N1407 G1 F100 X0.813014 Y-0.763097 Z-0.031875
N1408 G1 F100 X0.822253 Y-0.759270 Z-0.031250
N1409 G1 F100 X0.831492 Y-0.755443 Z-0.030937
N1410 G1 F100 X0.840730 Y-0.751616 Z-0.030000
N1411 G1 F100 X0.849969 Y-0.747789 Z-0.029375
N1412 G1 F100 X0.859208 Y-0.743963 Z-0.027813
N1413 G1 F100 X0.868447 Y-0.740136 Z-0.027500
N1414 G1 F100 X0.877686 Y-0.736309 Z-0.028438
N1415 G1 F100 X0.886924 Y-0.732482 Z-0.029375
N1416 G1 F100 X0.896163 Y-0.728655 Z-0.030625
N1417 G1 F100 X0.905402 Y-0.724828 Z-0.031563
N1418 G1 F100 X0.914641 Y-0.721002 Z-0.032500
N1419 G1 F100 X0.923880 Y-0.717175 Z-0.033125
N1420 G1 F100 X0.933118 Y-0.713348 Z-0.033438
N1421 G1 F100 X0.942357 Y-0.709521 Z-0.035313
N1422 G1 F100 X0.951596 Y-0.705694 Z-0.035938
N1423 G1 F100 X0.960835 Y-0.701867 Z-0.037500
N1424 G1 F100 X0.970074 Y-0.698041 Z-0.037500
N1425 G1 F100 X0.979312 Y-0.694214 Z-0.037500
N1426 G1 F100 X0.988551 Y-0.690387 Z-0.038437
N1427 G1 F100 X0.997790 Y-0.686560 Z-0.039062
N1428 G1 F100 X1.007029 Y-0.682733 Z-0.038437
N1429 G1 F100 X1.016267 Y-0.678906 Z-0.038125
N1430 G1 F100 X1.025506 Y-0.675080 Z-0.037812
N1431 G1 F100 X1.034745 Y-0.671253 Z-0.037500
N1432 G1 F100 X1.043984 Y-0.667426 Z-0.037187
N1433 G1 F100 X1.053223 Y-0.663599 Z-0.035938
N1434 G1 F100 X1.062461 Y-0.659772 Z-0.034063
N1435 G1 F100 X1.071700 Y-0.655945 Z-0.032813
N1436 G1 F100 X1.080939 Y-0.652119 Z-0.032813
N1437 G1 F100 X1.090178 Y-0.648292 Z-0.032813
N1438 G1 F100 X1.099417 Y-0.644465 Z-0.032813
N1439 G1 F100 X1.108655 Y-0.640638 Z-0.034063
N1440 G1 F100 X1.117894 Y-0.636811 Z-0.035000
N1441 G1 F100 X1.127133 Y-0.632984 Z-0.035938
N1442 G1 F100 X1.136372 Y-0.629158 Z-0.036562
N1443 G1 F100 X1.145611 Y-0.625331 Z-0.037187
N1444 G1 F100 X1.154849 Y-0.621504 Z-0.037812
N1445 G1 F100 X1.164088 Y-0.617677 Z-0.038437
N1446 G1 F100 X1.173327 Y-0.613850 Z-0.038437
N1447 G1 F100 X1.182566 Y-0.610023 Z-0.037812
N1448 G1 F100 X1.191805 Y-0.606197 Z-0.037187
N1449 G1 F100 X1.201043 Y-0.602370 Z-0.036875
N1450 G1 F100 X1.210282 Y-0.598543 Z-0.036875
N1451 G1 F100 X1.219521 Y-0.594716 Z-0.036875
N1452 G1 F100 X1.228760 Y-0.590889 Z-0.036250
N1453 G1 F100 X1.237999 Y-0.587062 Z-0.035313
N1454 G1 F100 X1.247237 Y-0.583236 Z-0.033750
N1455 G1 F100 X1.256476 Y-0.579409 Z-0.032500
N1456 G1 F100 X1.265715 Y-0.575582 Z-0.031563
N1457 G1 F100 X1.274954 Y-0.571755 Z-0.030312
N1458 G1 F100 X1.284193 Y-0.567928 Z-0.028750
N1459 G1 F100 X1.293431 Y-0.564101 Z-0.028125
N1460 G1 F100 X1.302670 Y-0.560275 Z-0.026875
N1461 G1 F100 X1.311909 Y-0.556448 Z-0.025313
N1462 G1 F100 X1.321148 Y-0.552621 Z-0.024375
N1463 G1 F100 X1.330387 Y-0.548794 Z-0.024063
N1464 G1 F100 X1.339625 Y-0.544967 Z-0.023438
N1465 G1 F100 X1.348864 Y-0.541140 Z-0.022187
N1466 G1 F100 X1.358103 Y-0.537314 Z-0.022187
N1467 G1 F100 X1.367342 Y-0.533487 Z-0.022500
N1468 G1 F100 X1.376581 Y-0.529660 Z-0.022500
N1469 G1 F100 X1.385819 Y-0.525833 Z-0.022500
N1470 G1 F100 X1.395058 Y-0.522006 Z-0.022187
N1471 G1 F100 X1.404297 Y-0.518179 Z-0.023125
N1472 G1 F100 X1.413536 Y-0.514353 Z-0.024063
N1473 G1 F100 X1.422774 Y-0.510526 Z-0.023750
N1474 G1 F100 X1.432013 Y-0.506699 Z-0.022500
N1475 G1 F100 X1.441252 Y-0.502872 Z-0.021250
N1476 G1 F100 X1.450491 Y-0.499045 Z-0.021563
N1477 G1 F100 X1.459730 Y-0.495218 Z-0.022187
N1478 G1 F100 X1.468968 Y-0.491392 Z-0.022187
N1479 G1 F100 X1.478207 Y-0.487565 Z-0.021563
N1480 G1 F100 X1.487446 Y-0.483738 Z-0.022187
N1481 G1 F100 X1.496685 Y-0.479911 Z-0.022500
N1482 G1 F100 X1.505924 Y-0.476084 Z-0.022812
N1483 G1 F100 X1.515162 Y-0.472257 Z-0.022500
N1484 G1 F100 X1.524401 Y-0.468431 Z-0.023438
N1485 G1 F100 X1.533640 Y-0.464604 Z-0.024375
N1486 G1 F100 X1.542879 Y-0.460777 Z-0.025625
N1487 G1 F100 X1.552118 Y-0.456950 Z-0.026875
N1488 G1 F100 X1.561356 Y-0.453123 Z-0.027187
N1489 G1 F100 X1.570595 Y-0.449296 Z-0.027813
N1490 G1 F100 X1.579834 Y-0.445470 Z-0.029688
N1491 G1 F100 X1.589073 Y-0.441643 Z-0.031563
N1492 G1 F100 X1.598312 Y-0.437816 Z-0.032500
N1493 G1 F100 X1.607550 Y-0.433989 Z-0.032813
N1494 G1 F100 X1.616789 Y-0.430162 Z-0.033125
N1495 G1 F100 X1.626028 Y-0.426335 Z-0.034063
N1496 G1 F100 X1.635267 Y-0.422509 Z-0.035000
N1497 G1 F100 X1.644506 Y-0.418682 Z-0.035938
N1498 G1 F100 X1.653744 Y-0.414855 Z-0.036250
N1499 G1 F100 X1.662983 Y-0.411028 Z-0.036250
N1500 G1 F100 X1.672222 Y-0.407201 Z-0.036562
N1501 G1 F100 X1.681461 Y-0.403374 Z-0.037187
N1502 G1 F100 X1.690700 Y-0.399548 Z-0.037812
N1503 G1 F100 X1.699938 Y-0.395721 Z-0.038750
N1504 G1 F100 X1.709177 Y-0.391894 Z-0.038750
N1505 G1 F100 X1.718416 Y-0.388067 Z-0.037812
N1506 G1 F100 X1.727655 Y-0.384240 Z-0.039688
N1507 G1 F100 X1.736894 Y-0.380413 Z-0.038125
N1508 G1 F100 X1.746132 Y-0.376587 Z-0.036562
N1509 G1 F100 X1.755371 Y-0.372760 Z-0.035000
N1510 G1 F100 X1.764610 Y-0.368933 Z-0.034375
N1511 G1 F100 X1.773849 Y-0.365106 Z-0.034375
N1512 G1 F100 X1.783087 Y-0.361279 Z-0.033750
N1513 G1 F100 X1.792326 Y-0.357452 Z-0.033750
N1514 G1 F100 X1.801565 Y-0.353626 Z-0.034688
N1515 G1 F100 X1.810804 Y-0.349799 Z-0.034063
N1516 G1 F100 X1.820043 Y-0.345972 Z-0.033750
N1517 G1 F100 X1.829281 Y-0.342145 Z-0.033125
N1518 G1 F100 X1.838520 Y-0.338318 Z-0.032813
N1519 G1 F100 X1.847759 Y-0.334491 Z-0.032813
N1520 G1 F100 X1.856998 Y-0.330664 Z-0.032813
N1521 G1 F100 X1.866237 Y-0.326838 Z-0.033125
N1522 G1 F100 X1.875475 Y-0.323011 Z-0.032500
N1523 G1 F100 X1.884714 Y-0.319184 Z-0.031250
N1524 G1 F100 X1.893953 Y-0.315357 Z-0.030312
N1525 G1 F100 X1.903192 Y-0.311530 Z-0.029688
N1526 G1 F100 X1.912431 Y-0.307703 Z-0.029375
N1527 G1 F100 X1.921669 Y-0.303877 Z-0.029375
N1528 G1 F100 X1.930908 Y-0.300050 Z-0.029688
N1529 G1 F100 X1.940147 Y-0.296223 Z-0.030000
N1530 G1 F100 X1.949386 Y-0.292396 Z-0.030312
N1531 G1 F100 X1.958625 Y-0.288569 Z-0.030937
N1532 G1 F100 X1.967863 Y-0.284742 Z-0.031250
N1533 G1 F100 X1.977102 Y-0.280916 Z-0.031563
N1534 G1 F100 X1.986341 Y-0.277089 Z-0.031875
N1535 G1 F100 X1.995580 Y-0.273262 Z-0.031875
N1536 G1 F100 X2.004819 Y-0.269435 Z-0.031875
N1537 G1 F100 X2.014057 Y-0.265608 Z-0.032500
N1538 G1 F100 X2.023296 Y-0.261781 Z-0.032813
N1539 G1 F100 X2.032535 Y-0.257955 Z-0.033125
N1540 G1 F100 X2.041774 Y-0.254128 Z-0.033750
N1541 G1 F100 X2.051013 Y-0.250301 Z-0.034375
N1542 G1 F100 X2.060251 Y-0.246474 Z-0.035000
N1543 G1 F100 X2.069490 Y-0.242647 Z-0.035938
N1544 G1 F100 X2.078729 Y-0.238820 Z-0.036875
N1545 G1 F100 X2.087968 Y-0.234994 Z-0.037500
N1546 G1 F100 X2.097207 Y-0.231167 Z-0.038125
N1547 G1 F100 X2.106445 Y-0.227340 Z-0.038125
N1548 G1 F100 X2.115684 Y-0.223513 Z-0.038125
N1549 G1 F100 X2.124923 Y-0.219686 Z-0.038125
N1550 G1 F100 X2.134162 Y-0.215859 Z-0.038125
N1551 G1 F100 X2.143401 Y-0.212033 Z-0.038125
N1552 G1 F100 X2.152639 Y-0.208206 Z-0.038125
N1553 G1 F100 X2.161878 Y-0.204379 Z-0.038125
N1554 G1 F100 X2.171117 Y-0.200552 Z-0.038125
N1555 G1 F100 X2.180356 Y-0.196725 Z-0.037812
N1556 G1 F100 X2.189594 Y-0.192898 Z-0.038125
N1557 G1 F100 X2.198833 Y-0.189072 Z-0.038125
N1558 G1 F100 X2.208072 Y-0.185245 Z-0.037812
N1559 G1 F100 X2.217311 Y-0.181418 Z-0.037812
N1560 G1 F100 X2.226550 Y-0.177591 Z-0.037812
N1561 G1 F100 X2.235788 Y-0.173764 Z-0.037812
N1562 G1 F100 X2.245027 Y-0.169937 Z-0.038125
N1563 G1 F100 X2.254266 Y-0.166111 Z-0.038437
N1564 G1 F100 X2.263505 Y-0.162284 Z-0.038750
N1565 G1 F100 X2.272744 Y-0.158457 Z-0.038750
N1566 G1 F100 X2.281982 Y-0.154630 Z-0.038437
N1567 G1 F100 X2.291221 Y-0.150803 Z-0.038750
N1568 G1 F100 X2.300460 Y-0.146976 Z-0.038750
N1569 G1 F100 X2.309699 Y-0.143150 Z-0.039062
N1570 G1 F100 X2.318938 Y-0.139323 Z-0.039062
N1571 G1 F100 X2.328176 Y-0.135496 Z-0.039062
N1572 G1 F100 X2.337415 Y-0.131669 Z-0.039375
N1573 G1 F100 X2.346654 Y-0.127842 Z-0.039375
N1574 G1 F100 X2.355893 Y-0.124015 Z-0.039688
N1575 G1 F100 X2.365132 Y-0.120189 Z-0.039062
N1576 G1 F100 X2.374370 Y-0.116362 Z-0.038437
N1577 G1 F100 X2.383609 Y-0.112535 Z-0.037187
N1578 G1 F100 X2.392848 Y-0.108708 Z-0.035625
N1579 G1 F100 X2.402087 Y-0.104881 Z-0.034688
N1580 G1 F100 X2.411326 Y-0.101054 Z-0.034375
N1581 G1 F100 X2.420564 Y-0.097228 Z-0.034375
N1582 G1 F100 X2.429803 Y-0.093401 Z-0.034063
N1583 G1 F100 X2.439042 Y-0.089574 Z-0.033750
N1584 G1 F100 X2.448281 Y-0.085747 Z-0.033125
N1585 G1 F100 X2.457520 Y-0.081920 Z-0.032813
N1586 G1 F100 X2.466758 Y-0.078093 Z-0.032500
N1587 G1 F100 X2.475997 Y-0.074267 Z-0.032188
N1588 G1 F100 X2.485236 Y-0.070440 Z-0.031875
N1589 G1 F100 X2.494475 Y-0.066613 Z-0.031250
N1590 G1 F100 X2.503714 Y-0.062786 Z-0.032813
N1591 G1 F100 X2.512952 Y-0.058959 Z-0.033750
N1592 G1 F100 X2.522191 Y-0.055132 Z-0.034375
N1593 G1 F100 X2.531430 Y-0.051306 Z-0.035313
N1594 G1 F100 X2.540669 Y-0.047479 Z-0.035938
N1595 G1 F100 X2.549908 Y-0.043652 Z-0.036875
N1596 G1 F100 X2.559146 Y-0.039825 Z-0.038125
N1597 G1 F100 X2.568385 Y-0.035998 Z-0.039375
N1598 G1 F100 X2.577624 Y-0.032171 Z-0.040938
N1599 G1 F100 X2.586863 Y-0.028345 Z-0.042188
N1600 G1 F100 X2.596101 Y-0.024518 Z-0.043125
N1601 G1 F100 X2.605340 Y-0.020691 Z-0.044062
N1602 G1 F100 X2.614579 Y-0.016864 Z-0.045312
N1603 G1 F100 X2.623818 Y-0.013037 Z-0.046562
N1604 G1 F100 X2.633057 Y-0.009210 Z-0.048750
N1605 G1 F100 X2.642295 Y-0.005384 Z-0.050938
N1606 G1 F100 X2.651534 Y-0.001557 Z-0.052812
N1607 G1 F10 Z0.200000
N1608 G0 X2.917064 Y-0.001557
N1609 G1 F10 X2.917064 Y-0.001557 Z-0.055938
N1610 G1 F100 X2.907825 Y-0.005384 Z-0.055625
N1611 G1 F100 X2.898586 Y-0.009210 Z-0.055938
N1612 G1 F100 X2.889347 Y-0.013037 Z-0.055938
N1613 G1 F100 X2.880108 Y-0.016864 Z-0.055625
N1614 G1 F100 X2.870870 Y-0.020691 Z-0.055000
N1615 G1 F100 X2.861631 Y-0.024518 Z-0.055000
N1616 G1 F100 X2.852392 Y-0.028345 Z-0.055313
N1617 G1 F100 X2.843153 Y-0.032171 Z-0.055625
N1618 G1 F100 X2.833914 Y-0.035998 Z-0.055625
N1619 G1 F100 X2.824676 Y-0.039825 Z-0.055000
N1620 G1 F100 X2.815437 Y-0.043652 Z-0.054688
N1621 G1 F100 X2.806198 Y-0.047479 Z-0.054688
N1622 G1 F100 X2.796959 Y-0.051306 Z-0.055000
N1623 G1 F100 X2.787720 Y-0.055132 Z-0.055313
N1624 G1 F100 X2.778482 Y-0.058959 Z-0.055625
N1625 G1 F100 X2.769243 Y-0.062786 Z-0.055938
N1626 G1 F100 X2.760004 Y-0.066613 Z-0.055938
N1627 G1 F100 X2.750765 Y-0.070440 Z-0.055938
N1628 G1 F100 X2.741526 Y-0.074267 Z-0.055625
N1629 G1 F100 X2.732288 Y-0.078093 Z-0.055000
N1630 G1 F100 X2.723049 Y-0.081920 Z-0.055625
N1631 G1 F100 X2.713810 Y-0.085747 Z-0.056563
N1632 G1 F100 X2.704571 Y-0.089574 Z-0.056875
N1633 G1 F100 X2.695332 Y-0.093401 Z-0.056250
N1634 G1 F100 X2.686094 Y-0.097228 Z-0.055313
N1635 G1 F100 X2.676855 Y-0.101054 Z-0.055000
N1636 G1 F100 X2.667616 Y-0.104881 Z-0.055313
N1637 G1 F100 X2.658377 Y-0.108708 Z-0.055938
N1638 G1 F100 X2.649138 Y-0.112535 Z-0.056250
N1639 G1 F100 X2.639900 Y-0.116362 Z-0.056250
N1640 G1 F100 X2.630661 Y-0.120189 Z-0.055938
N1641 G1 F100 X2.621422 Y-0.124015 Z-0.054688
N1642 G1 F100 X2.612183 Y-0.127842 Z-0.054062
N1643 G1 F100 X2.602944 Y-0.131669 Z-0.053437
N1644 G1 F100 X2.593706 Y-0.135496 Z-0.051563
N1645 G1 F100 X2.584467 Y-0.139323 Z-0.049375
N1646 G1 F100 X2.575228 Y-0.143150 Z-0.048438
N1647 G1 F100 X2.565989 Y-0.146976 Z-0.047188
N1648 G1 F100 X2.556750 Y-0.150803 Z-0.045937
N1649 G1 F100 X2.547512 Y-0.154630 Z-0.044687
N1650 G1 F100 X2.538273 Y-0.158457 Z-0.043750
N1651 G1 F100 X2.529034 Y-0.162284 Z-0.041875
N1652 G1 F100 X2.519795 Y-0.166111 Z-0.041563
N1653 G1 F100 X2.510557 Y-0.169937 Z-0.040625
N1654 G1 F100 X2.501318 Y-0.173764 Z-0.039375
N1655 G1 F100 X2.492079 Y-0.177591 Z-0.038437
N1656 G1 F100 X2.482840 Y-0.181418 Z-0.037187
N1657 G1 F100 X2.473601 Y-0.185245 Z-0.035313
N1658 G1 F100 X2.464363 Y-0.189072 Z-0.034375
N1659 G1 F100 X2.455124 Y-0.192898 Z-0.033750
N1660 G1 F100 X2.445885 Y-0.196725 Z-0.033750
N1661 G1 F100 X2.436646 Y-0.200552 Z-0.034063
N1662 G1 F100 X2.427407 Y-0.204379 Z-0.033750
N1663 G1 F100 X2.418169 Y-0.208206 Z-0.033125
N1664 G1 F100 X2.408930 Y-0.212033 Z-0.032813
N1665 G1 F100 X2.399691 Y-0.215859 Z-0.032813
N1666 G1 F100 X2.390452 Y-0.219686 Z-0.033125
N1667 G1 F100 X2.381213 Y-0.223513 Z-0.033750
N1668 G1 F100 X2.371975 Y-0.227340 Z-0.033750
N1669 G1 F100 X2.362736 Y-0.231167 Z-0.033438
N1670 G1 F100 X2.353497 Y-0.234994 Z-0.033438
N1671 G1 F100 X2.344258 Y-0.238820 Z-0.033750
N1672 G1 F100 X2.335019 Y-0.242647 Z-0.033438
N1673 G1 F100 X2.325781 Y-0.246474 Z-0.034375
N1674 G1 F100 X2.316542 Y-0.250301 Z-0.034688
N1675 G1 F100 X2.307303 Y-0.254128 Z-0.034375
N1676 G1 F100 X2.298064 Y-0.257955 Z-0.035000
N1677 G1 F100 X2.288825 Y-0.261781 Z-0.036250
N1678 G1 F100 X2.279587 Y-0.265608 Z-0.036875
N1679 G1 F100 X2.270348 Y-0.269435 Z-0.036562
N1680 G1 F100 X2.261109 Y-0.273262 Z-0.037187
N1681 G1 F100 X2.251870 Y-0.277089 Z-0.037500
N1682 G1 F100 X2.242631 Y-0.280916 Z-0.037187
N1683 G1 F100 X2.233393 Y-0.284742 Z-0.036875
N1684 G1 F100 X2.224154 Y-0.288569 Z-0.036562
N1685 G1 F100 X2.214915 Y-0.292396 Z-0.036250
N1686 G1 F100 X2.205676 Y-0.296223 Z-0.035625
N1687 G1 F100 X2.196437 Y-0.300050 Z-0.035313
N1688 G1 F100 X2.187199 Y-0.303877 Z-0.035000
N1689 G1 F100 X2.177960 Y-0.307703 Z-0.034375
N1690 G1 F100 X2.168721 Y-0.311530 Z-0.035000
N1691 G1 F100 X2.159482 Y-0.315357 Z-0.034688
N1692 G1 F100 X2.150244 Y-0.319184 Z-0.034063
N1693 G1 F100 X2.141005 Y-0.323011 Z-0.034063
N1694 G1 F100 X2.131766 Y-0.326838 Z-0.034375
N1695 G1 F100 X2.122527 Y-0.330664 Z-0.034688
N1696 G1 F100 X2.113288 Y-0.334491 Z-0.035000
N1697 G1 F100 X2.104050 Y-0.338318 Z-0.035000
N1698 G1 F100 X2.094811 Y-0.342145 Z-0.034375
N1699 G1 F100 X2.085572 Y-0.345972 Z-0.033750
N1700 G1 F100 X2.076333 Y-0.349799 Z-0.033125
N1701 G1 F100 X2.067094 Y-0.353626 Z-0.032813
N1702 G1 F100 X2.057856 Y-0.357452 Z-0.032500
N1703 G1 F100 X2.048617 Y-0.361279 Z-0.031875
N1704 G1 F100 X2.039378 Y-0.365106 Z-0.031563
N1705 G1 F100 X2.030139 Y-0.368933 Z-0.030937
N1706 G1 F100 X2.020900 Y-0.372760 Z-0.030312
N1707 G1 F100 X2.011662 Y-0.376587 Z-0.030312
N1708 G1 F100 X2.002423 Y-0.380413 Z-0.030000
N1709 G1 F100 X1.993184 Y-0.384240 Z-0.030000
N1710 G1 F100 X1.983945 Y-0.388067 Z-0.029063
N1711 G1 F100 X1.974706 Y-0.391894 Z-0.028125
N1712 G1 F100 X1.965468 Y-0.395721 Z-0.027500
N1713 G1 F100 X1.956229 Y-0.399548 Z-0.027187
N1714 G1 F100 X1.946990 Y-0.403374 Z-0.027187
N1715 G1 F100 X1.937751 Y-0.407201 Z-0.026562
N1716 G1 F100 X1.928512 Y-0.411028 Z-0.026250
N1717 G1 F100 X1.919274 Y-0.414855 Z-0.026875
N1718 G1 F100 X1.910035 Y-0.418682 Z-0.028438
N1719 G1 F100 X1.900796 Y-0.422509 Z-0.030000
N1720 G1 F100 X1.891557 Y-0.426335 Z-0.030937
N1721 G1 F100 X1.882318 Y-0.430162 Z-0.031563
N1722 G1 F100 X1.873080 Y-0.433989 Z-0.031563
N1723 G1 F100 X1.863841 Y-0.437816 Z-0.031250
N1724 G1 F100 X1.854602 Y-0.441643 Z-0.031563
N1725 G1 F100 X1.845363 Y-0.445470 Z-0.031875
N1726 G1 F100 X1.836124 Y-0.449296 Z-0.032500
N1727 G1 F100 X1.826886 Y-0.453123 Z-0.033125
N1728 G1 F100 X1.817647 Y-0.456950 Z-0.033438
N1729 G1 F100 X1.808408 Y-0.460777 Z-0.033750
N1730 G1 F100 X1.799169 Y-0.464604 Z-0.033750
N1731 G1 F100 X1.789930 Y-0.468431 Z-0.032188
N1732 G1 F100 X1.780692 Y-0.472257 Z-0.032188
N1733 G1 F100 X1.771453 Y-0.476084 Z-0.032188
N1734 G1 F100 X1.762214 Y-0.479911 Z-0.031875
N1735 G1 F100 X1.752975 Y-0.483738 Z-0.031563
N1736 G1 F100 X1.743737 Y-0.487565 Z-0.031563
N1737 G1 F100 X1.734498 Y-0.491392 Z-0.031875
N1738 G1 F100 X1.725259 Y-0.495218 Z-0.031563
N1739 G1 F100 X1.716020 Y-0.499045 Z-0.030625
N1740 G1 F100 X1.706781 Y-0.502872 Z-0.030625
N1741 G1 F100 X1.697543 Y-0.506699 Z-0.031250
N1742 G1 F100 X1.688304 Y-0.510526 Z-0.031875
N1743 G1 F100 X1.679065 Y-0.514353 Z-0.031563
N1744 G1 F100 X1.669826 Y-0.518179 Z-0.030937
N1745 G1 F100 X1.660587 Y-0.522006 Z-0.030312
N1746 G1 F100 X1.651349 Y-0.525833 Z-0.030312
N1747 G1 F100 X1.642110 Y-0.529660 Z-0.030000
N1748 G1 F100 X1.632871 Y-0.533487 Z-0.027500
N1749 G1 F100 X1.623632 Y-0.537314 Z-0.025313
N1750 G1 F100 X1.614393 Y-0.541140 Z-0.022812
N1751 G1 F100 X1.605155 Y-0.544967 Z-0.020625
N1752 G1 F100 X1.595916 Y-0.548794 Z-0.019062
N1753 G1 F100 X1.586677 Y-0.552621 Z-0.018125
N1754 G1 F100 X1.577438 Y-0.556448 Z-0.017188
N1755 G1 F100 X1.568199 Y-0.560275 Z-0.016250
N1756 G1 F100 X1.558961 Y-0.564101 Z-0.016250
N1757 G1 F100 X1.549722 Y-0.567928 Z-0.015312
N1758 G1 F100 X1.540483 Y-0.571755 Z-0.015000
N1759 G1 F100 X1.531244 Y-0.575582 Z-0.015000
N1760 G1 F100 X1.522005 Y-0.579409 Z-0.014688
N1761 G1 F100 X1.512767 Y-0.583236 Z-0.015000
N1762 G1 F100 X1.503528 Y-0.587062 Z-0.015938
N1763 G1 F100 X1.494289 Y-0.590889 Z-0.016563
N1764 G1 F100 X1.485050 Y-0.594716 Z-0.017188
N1765 G1 F100 X1.475811 Y-0.598543 Z-0.017813
N1766 G1 F100 X1.466573 Y-0.602370 Z-0.018437
N1767 G1 F100 X1.457334 Y-0.606197 Z-0.018750
N1768 G1 F100 X1.448095 Y-0.610023 Z-0.019375
N1769 G1 F100 X1.438856 Y-0.613850 Z-0.019688
N1770 G1 F100 X1.429617 Y-0.617677 Z-0.019375
N1771 G1 F100 X1.420379 Y-0.621504 Z-0.018125
N1772 G1 F100 X1.411140 Y-0.625331 Z-0.017813
N1773 G1 F100 X1.401901 Y-0.629158 Z-0.017188
N1774 G1 F100 X1.392662 Y-0.632984 Z-0.016563
N1775 G1 F100 X1.383423 Y-0.636811 Z-0.016250
N1776 G1 F100 X1.374185 Y-0.640638 Z-0.016563
N1777 G1 F100 X1.364946 Y-0.644465 Z-0.017813
N1778 G1 F100 X1.355707 Y-0.648292 Z-0.018750
N1779 G1 F100 X1.346468 Y-0.652119 Z-0.019062
N1780 G1 F100 X1.337230 Y-0.655945 Z-0.019062
N1781 G1 F100 X1.327991 Y-0.659772 Z-0.019375
N1782 G1 F100 X1.318752 Y-0.663599 Z-0.020313
N1783 G1 F100 X1.309513 Y-0.667426 Z-0.020938
N1784 G1 F100 X1.300274 Y-0.671253 Z-0.021875
N1785 G1 F100 X1.291036 Y-0.675080 Z-0.023438
N1786 G1 F100 X1.281797 Y-0.678906 Z-0.026875
N1787 G1 F100 X1.272558 Y-0.682733 Z-0.029688
N1788 G1 F100 X1.263319 Y-0.686560 Z-0.031875
N1789 G1 F100 X1.254080 Y-0.690387 Z-0.031875
N1790 G1 F100 X1.244842 Y-0.694214 Z-0.031875
N1791 G1 F100 X1.235603 Y-0.698041 Z-0.032500
N1792 G1 F100 X1.226364 Y-0.701867 Z-0.032813
N1793 G1 F100 X1.217125 Y-0.705694 Z-0.032500
N1794 G1 F100 X1.207886 Y-0.709521 Z-0.032188
N1795 G1 F100 X1.198648 Y-0.713348 Z-0.032500
N1796 G1 F100 X1.189409 Y-0.717175 Z-0.033125
N1797 G1 F100 X1.180170 Y-0.721002 Z-0.033125
N1798 G1 F100 X1.170931 Y-0.724828 Z-0.032500
N1799 G1 F100 X1.161692 Y-0.728655 Z-0.030625
N1800 G1 F100 X1.152454 Y-0.732482 Z-0.030312
N1801 G1 F100 X1.143215 Y-0.736309 Z-0.029688
N1802 G1 F100 X1.133976 Y-0.740136 Z-0.029375
N1803 G1 F100 X1.124737 Y-0.743963 Z-0.029688
N1804 G1 F100 X1.115498 Y-0.747789 Z-0.030000
N1805 G1 F100 X1.106260 Y-0.751616 Z-0.030625
N1806 G1 F100 X1.097021 Y-0.755443 Z-0.030937
N1807 G1 F100 X1.087782 Y-0.759270 Z-0.031875
N1808 G1 F100 X1.078543 Y-0.763097 Z-0.031875
N1809 G1 F100 X1.069304 Y-0.766924 Z-0.032188
N1810 G1 F100 X1.060066 Y-0.770750 Z-0.032500
N1811 G1 F100 X1.050827 Y-0.774577 Z-0.033438
N1812 G1 F100 X1.041588 Y-0.778404 Z-0.034063
N1813 G1 F100 X1.032349 Y-0.782231 Z-0.034375
N1814 G1 F100 X1.023110 Y-0.786058 Z-0.035000
N1815 G1 F100 X1.013872 Y-0.789885 Z-0.035000
N1816 G1 F100 X1.004633 Y-0.793711 Z-0.035313
N1817 G1 F100 X0.995394 Y-0.797538 Z-0.035313
N1818 G1 F100 X0.986155 Y-0.801365 Z-0.034688
N1819 G1 F100 X0.976916 Y-0.805192 Z-0.033750
N1820 G1 F100 X0.967678 Y-0.809019 Z-0.033438
N1821 G1 F100 X0.958439 Y-0.812846 Z-0.033438
N1822 G1 F100 X0.949200 Y-0.816672 Z-0.032500
N1823 G1 F100 X0.939961 Y-0.820499 Z-0.031250
N1824 G1 F100 X0.930723 Y-0.824326 Z-0.030000
N1825 G1 F100 X0.921484 Y-0.828153 Z-0.029063
N1826 G1 F100 X0.912245 Y-0.831980 Z-0.027187
N1827 G1 F100 X0.903006 Y-0.835807 Z-0.025625
N1828 G1 F100 X0.893767 Y-0.839633 Z-0.025000
N1829 G1 F100 X0.884529 Y-0.843460 Z-0.025000
N1830 G1 F100 X0.875290 Y-0.847287 Z-0.025313
N1831 G1 F100 X0.866051 Y-0.851114 Z-0.025938
N1832 G1 F100 X0.856812 Y-0.854941 Z-0.025938
N1833 G1 F100 X0.847573 Y-0.858768 Z-0.026250
N1834 G1 F100 X0.838335 Y-0.862594 Z-0.026875
N1835 G1 F100 X0.829096 Y-0.866421 Z-0.028125
N1836 G1 F100 X0.819857 Y-0.870248 Z-0.029063
N1837 G1 F100 X0.810618 Y-0.874075 Z-0.030000
N1838 G1 F100 X0.801379 Y-0.877902 Z-0.030937
N1839 G1 F100 X0.792141 Y-0.881729 Z-0.031250
N1840 G1 F100 X0.782902 Y-0.885555 Z-0.031250
N1841 G1 F100 X0.773663 Y-0.889382 Z-0.030625
N1842 G1 F100 X0.764424 Y-0.893209 Z-0.030000
N1843 G1 F100 X0.755185 Y-0.897036 Z-0.029375
N1844 G1 F100 X0.745947 Y-0.900863 Z-0.028750
N1845 G1 F100 X0.736708 Y-0.904690 Z-0.028438
N1846 G1 F100 X0.727469 Y-0.908516 Z-0.027813
N1847 G1 F100 X0.718230 Y-0.912343 Z-0.027187
N1848 G1 F100 X0.708991 Y-0.916170 Z-0.026250
N1849 G1 F100 X0.699753 Y-0.919997 Z-0.025625
N1850 G1 F100 X0.690514 Y-0.923824 Z-0.026250
N1851 G1 F100 X0.681275 Y-0.927651 Z-0.027500
N1852 G1 F100 X0.672036 Y-0.931477 Z-0.028438
N1853 G1 F100 X0.662797 Y-0.935304 Z-0.028438
N1854 G1 F100 X0.653559 Y-0.939131 Z-0.028438
N1855 G1 F100 X0.644320 Y-0.942958 Z-0.028438
N1856 G1 F100 X0.635081 Y-0.946785 Z-0.028750
N1857 G1 F100 X0.625842 Y-0.950612 Z-0.029375
N1858 G1 F100 X0.616603 Y-0.954438 Z-0.030000
N1859 G1 F100 X0.607365 Y-0.958265 Z-0.030312
N1860 G1 F100 X0.598126 Y-0.962092 Z-0.030625
N1861 G1 F100 X0.588887 Y-0.965919 Z-0.031250
N1862 G1 F100 X0.579648 Y-0.969746 Z-0.031875
N1863 G1 F100 X0.570410 Y-0.973573 Z-0.032500
N1864 G1 F100 X0.561171 Y-0.977399 Z-0.033125
N1865 G1 F100 X0.551932 Y-0.981226 Z-0.033750
N1866 G1 F100 X0.542693 Y-0.985053 Z-0.033750
N1867 G1 F100 X0.533454 Y-0.988880 Z-0.034375
N1868 G1 F100 X0.524216 Y-0.992707 Z-0.035000
N1869 G1 F100 X0.514977 Y-0.996534 Z-0.035000
N1870 G1 F100 X0.505738 Y-1.000361 Z-0.034375
N1871 G1 F100 X0.496499 Y-1.004187 Z-0.034375
N1872 G1 F100 X0.487260 Y-1.008014 Z-0.035313
N1873 G1 F100 X0.478022 Y-1.011841 Z-0.035938
N1874 G1 F100 X0.468783 Y-1.015668 Z-0.035625
N1875 G1 F100 X0.459544 Y-1.019495 Z-0.035625
N1876 G1 F100 X0.450305 Y-1.023322 Z-0.035938
N1877 G1 F100 X0.441066 Y-1.027148 Z-0.036250
N1878 G1 F100 X0.431828 Y-1.030975 Z-0.035625
N1879 G1 F100 X0.422589 Y-1.034802 Z-0.034688
N1880 G1 F100 X0.413350 Y-1.038629 Z-0.034375
N1881 G1 F100 X0.404111 Y-1.042456 Z-0.034375
N1882 G1 F100 X0.394872 Y-1.046283 Z-0.034375
N1883 G1 F100 X0.385634 Y-1.050109 Z-0.032500
N1884 G1 F100 X0.376395 Y-1.053936 Z-0.032500
N1885 G1 F100 X0.367156 Y-1.057763 Z-0.032813
N1886 G1 F100 X0.357917 Y-1.061590 Z-0.032813
N1887 G1 F100 X0.348678 Y-1.065417 Z-0.033125
N1888 G1 F100 X0.339440 Y-1.069244 Z-0.033125
N1889 G1 F100 X0.330201 Y-1.073070 Z-0.033125
N1890 G1 F100 X0.320962 Y-1.076897 Z-0.033125
N1891 G1 F100 X0.311723 Y-1.080724 Z-0.032813
N1892 G1 F100 X0.302484 Y-1.084551 Z-0.032813
N1893 G1 F100 X0.293246 Y-1.088378 Z-0.033125
N1894 G1 F100 X0.284007 Y-1.092205 Z-0.033125
N1895 G1 F100 X0.274768 Y-1.096031 Z-0.033125
N1896 G1 F100 X0.265529 Y-1.099858 Z-0.033438
N1897 G1 F100 X0.256290 Y-1.103685 Z-0.033750
N1898 G1 F100 X0.247052 Y-1.107512 Z-0.034063
N1899 G1 F100 X0.237813 Y-1.111339 Z-0.033750
N1900 G1 F100 X0.228574 Y-1.115166 Z-0.033438
N1901 G1 F100 X0.219335 Y-1.118992 Z-0.034063
N1902 G1 F100 X0.210096 Y-1.122819 Z-0.034688
N1903 G1 F100 X0.200858 Y-1.126646 Z-0.035000
N1904 G1 F100 X0.191619 Y-1.130473 Z-0.035313
N1905 G1 F100 X0.182380 Y-1.134300 Z-0.036250
N1906 G1 F100 X0.173141 Y-1.138127 Z-0.036875
N1907 G1 F100 X0.163903 Y-1.141953 Z-0.037187
N1908 G1 F100 X0.154664 Y-1.145780 Z-0.037812
N1909 G1 F100 X0.145425 Y-1.149607 Z-0.037500
N1910 G1 F100 X0.136186 Y-1.153434 Z-0.036875
N1911 G1 F100 X0.126947 Y-1.157261 Z-0.035938
N1912 G1 F100 X0.117709 Y-1.161088 Z-0.035313
N1913 G1 F100 X0.108470 Y-1.164914 Z-0.034688
N1914 G1 F100 X0.099231 Y-1.168741 Z-0.034375
N1915 G1 F100 X0.089992 Y-1.172568 Z-0.034688
N1916 G1 F100 X0.080753 Y-1.176395 Z-0.035000
N1917 G1 F100 X0.071515 Y-1.180222 Z-0.034375
N1918 G1 F100 X0.062276 Y-1.184049 Z-0.033750
N1919 G1 F100 X0.053037 Y-1.187875 Z-0.033750
N1920 G1 F100 X0.043798 Y-1.191702 Z-0.033438
N1921 G1 F100 X0.034559 Y-1.195529 Z-0.033750
N1922 G1 F100 X0.025321 Y-1.199356 Z-0.033750
N1923 G1 F100 X0.016082 Y-1.203183 Z-0.033125
N1924 G1 F100 X0.006843 Y-1.207010 Z-0.032500
N1925 G1 F10 Z0.200000
N1926 G0 X0.000000 Y-1.319830
N1927 G1 F10 X0.000000 Y-1.319830 Z-0.034063
N1928 G1 F100 X0.009239 Y-1.316003 Z-0.034063
N1929 G1 F100 X0.018478 Y-1.312176 Z-0.034063
N1930 G1 F100 X0.027716 Y-1.308349 Z-0.033750
N1931 G1 F100 X0.036955 Y-1.304522 Z-0.033750
N1932 G1 F100 X0.046194 Y-1.300696 Z-0.033750
N1933 G1 F100 X0.055433 Y-1.296869 Z-0.033750
N1934 G1 F100 X0.064672 Y-1.293042 Z-0.033750
N1935 G1 F100 X0.073910 Y-1.289215 Z-0.033750
N1936 G1 F100 X0.083149 Y-1.285388 Z-0.033750
N1937 G1 F100 X0.092388 Y-1.281561 Z-0.033750
N1938 G1 F100 X0.101627 Y-1.277735 Z-0.033750
N1939 G1 F100 X0.110866 Y-1.273908 Z-0.033750
N1940 G1 F100 X0.120104 Y-1.270081 Z-0.033750
N1941 G1 F100 X0.129343 Y-1.266254 Z-0.033750
N1942 G1 F100 X0.138582 Y-1.262427 Z-0.033750
N1943 G1 F100 X0.147821 Y-1.258600 Z-0.033750
N1944 G1 F100 X0.157060 Y-1.254774 Z-0.034063
N1945 G1 F100 X0.166298 Y-1.250947 Z-0.034063
N1946 G1 F100 X0.175537 Y-1.247120 Z-0.033750
N1947 G1 F100 X0.184776 Y-1.243293 Z-0.033125
N1948 G1 F100 X0.194015 Y-1.239466 Z-0.032813
N1949 G1 F100 X0.203253 Y-1.235639 Z-0.032500
N1950 G1 F100 X0.212492 Y-1.231813 Z-0.031563
N1951 G1 F100 X0.221731 Y-1.227986 Z-0.030625
N1952 G1 F100 X0.230970 Y-1.224159 Z-0.030000
N1953 G1 F100 X0.240209 Y-1.220332 Z-0.030312
N1954 G1 F100 X0.249447 Y-1.216505 Z-0.030000
N1955 G1 F100 X0.258686 Y-1.212678 Z-0.030000
N1956 G1 F100 X0.267925 Y-1.208852 Z-0.030000
N1957 G1 F100 X0.277164 Y-1.205025 Z-0.030000
N1958 G1 F100 X0.286403 Y-1.201198 Z-0.030312
N1959 G1 F100 X0.295641 Y-1.197371 Z-0.030625
N1960 G1 F100 X0.304880 Y-1.193544 Z-0.030937
N1961 G1 F100 X0.314119 Y-1.189717 Z-0.030937
N1962 G1 F100 X0.323358 Y-1.185891 Z-0.030937
N1963 G1 F100 X0.332597 Y-1.182064 Z-0.030937
N1964 G1 F100 X0.341835 Y-1.178237 Z-0.030937
N1965 G1 F100 X0.351074 Y-1.174410 Z-0.030937
N1966 G1 F100 X0.360313 Y-1.170583 Z-0.030937
N1967 G1 F100 X0.369552 Y-1.166756 Z-0.030937
N1968 G1 F100 X0.378791 Y-1.162930 Z-0.030937
N1969 G1 F100 X0.388029 Y-1.159103 Z-0.031563
N1970 G1 F100 X0.397268 Y-1.155276 Z-0.032188
N1971 G1 F100 X0.406507 Y-1.151449 Z-0.032500
N1972 G1 F100 X0.415746 Y-1.147622 Z-0.032813
N1973 G1 F100 X0.424985 Y-1.143795 Z-0.033125
N1974 G1 F100 X0.434223 Y-1.139969 Z-0.033750
N1975 G1 F100 X0.443462 Y-1.136142 Z-0.034688
N1976 G1 F100 X0.452701 Y-1.132315 Z-0.035313
N1977 G1 F100 X0.461940 Y-1.128488 Z-0.035938
N1978 G1 F100 X0.471179 Y-1.124661 Z-0.036562
N1979 G1 F100 X0.480417 Y-1.120834 Z-0.037812
N1980 G1 F100 X0.489656 Y-1.117008 Z-0.038437
N1981 G1 F100 X0.498895 Y-1.113181 Z-0.038750
N1982 G1 F100 X0.508134 Y-1.109354 Z-0.039688
N1983 G1 F100 X0.517373 Y-1.105527 Z-0.040938
N1984 G1 F100 X0.526611 Y-1.101700 Z-0.040938
N1985 G1 F100 X0.535850 Y-1.097873 Z-0.040000
N1986 G1 F100 X0.545089 Y-1.094047 Z-0.039062
N1987 G1 F100 X0.554328 Y-1.090220 Z-0.039062
N1988 G1 F100 X0.563567 Y-1.086393 Z-0.037812
N1989 G1 F100 X0.572805 Y-1.082566 Z-0.036562
N1990 G1 F100 X0.582044 Y-1.078739 Z-0.035625
N1991 G1 F100 X0.591283 Y-1.074912 Z-0.035313
N1992 G1 F100 X0.600522 Y-1.071086 Z-0.035000
N1993 G1 F100 X0.609760 Y-1.067259 Z-0.034688
N1994 G1 F100 X0.618999 Y-1.063432 Z-0.034375
N1995 G1 F100 X0.628238 Y-1.059605 Z-0.033750
N1996 G1 F100 X0.637477 Y-1.055778 Z-0.033438
N1997 G1 F100 X0.646716 Y-1.051951 Z-0.033438
N1998 G1 F100 X0.655954 Y-1.048125 Z-0.032813
N1999 G1 F100 X0.665193 Y-1.044298 Z-0.032500
N2000 G1 F100 X0.674432 Y-1.040471 Z-0.032188
N2001 G1 F100 X0.683671 Y-1.036644 Z-0.032188
N2002 G1 F100 X0.692910 Y-1.032817 Z-0.031875
N2003 G1 F100 X0.702148 Y-1.028990 Z-0.031875
N2004 G1 F100 X0.711387 Y-1.025164 Z-0.031875
N2005 G1 F100 X0.720626 Y-1.021337 Z-0.031563
N2006 G1 F100 X0.729865 Y-1.017510 Z-0.030937
N2007 G1 F100 X0.739104 Y-1.013683 Z-0.030625
N2008 G1 F100 X0.748342 Y-1.009856 Z-0.030625
N2009 G1 F100 X0.757581 Y-1.006029 Z-0.031250
N2010 G1 F100 X0.766820 Y-1.002203 Z-0.032188
N2011 G1 F100 X0.776059 Y-0.998376 Z-0.032500
N2012 G1 F100 X0.785298 Y-0.994549 Z-0.033125
N2013 G1 F100 X0.794536 Y-0.990722 Z-0.033438
N2014 G1 F100 X0.803775 Y-0.986895 Z-0.033125
N2015 G1 F100 X0.813014 Y-0.983068 Z-0.033125
N2016 G1 F100 X0.822253 Y-0.979242 Z-0.032813
N2017 G1 F100 X0.831492 Y-0.975415 Z-0.032188
N2018 G1 F100 X0.840730 Y-0.971588 Z-0.031563
N2019 G1 F100 X0.849969 Y-0.967761 Z-0.030625
N2020 G1 F100 X0.859208 Y-0.963934 Z-0.031250
N2021 G1 F100 X0.868447 Y-0.960107 Z-0.030937
N2022 G1 F100 X0.877686 Y-0.956281 Z-0.030312
N2023 G1 F100 X0.886924 Y-0.952454 Z-0.029688
N2024 G1 F100 X0.896163 Y-0.948627 Z-0.029688
N2025 G1 F100 X0.905402 Y-0.944800 Z-0.030000
N2026 G1 F100 X0.914641 Y-0.940973 Z-0.030312
N2027 G1 F100 X0.923880 Y-0.937146 Z-0.030625
N2028 G1 F100 X0.933118 Y-0.933320 Z-0.031250
N2029 G1 F100 X0.942357 Y-0.929493 Z-0.033125
N2030 G1 F100 X0.951596 Y-0.925666 Z-0.033438
N2031 G1 F100 X0.960835 Y-0.921839 Z-0.033750
N2032 G1 F100 X0.970074 Y-0.918012 Z-0.033750
N2033 G1 F100 X0.979312 Y-0.914185 Z-0.033438
N2034 G1 F100 X0.988551 Y-0.910359 Z-0.033438
N2035 G1 F100 X0.997790 Y-0.906532 Z-0.033438
N2036 G1 F100 X1.007029 Y-0.902705 Z-0.034063
N2037 G1 F100 X1.016267 Y-0.898878 Z-0.033750
N2038 G1 F100 X1.025506 Y-0.895051 Z-0.033438
N2039 G1 F100 X1.034745 Y-0.891224 Z-0.033125
N2040 G1 F100 X1.043984 Y-0.887398 Z-0.032500
N2041 G1 F100 X1.053223 Y-0.883571 Z-0.032500
N2042 G1 F100 X1.062461 Y-0.879744 Z-0.032188
N2043 G1 F100 X1.071700 Y-0.875917 Z-0.031875
N2044 G1 F100 X1.080939 Y-0.872090 Z-0.031563
N2045 G1 F100 X1.090178 Y-0.868263 Z-0.031250
N2046 G1 F100 X1.099417 Y-0.864437 Z-0.030937
N2047 G1 F100 X1.108655 Y-0.860610 Z-0.028125
N2048 G1 F100 X1.117894 Y-0.856783 Z-0.026562
N2049 G1 F100 X1.127133 Y-0.852956 Z-0.026875
N2050 G1 F100 X1.136372 Y-0.849129 Z-0.025000
N2051 G1 F100 X1.145611 Y-0.845302 Z-0.022812
N2052 G1 F100 X1.154849 Y-0.841476 Z-0.021875
N2053 G1 F100 X1.164088 Y-0.837649 Z-0.022500
N2054 G1 F100 X1.173327 Y-0.833822 Z-0.023438
N2055 G1 F100 X1.182566 Y-0.829995 Z-0.023750
N2056 G1 F100 X1.191805 Y-0.826168 Z-0.024688
N2057 G1 F100 X1.201043 Y-0.822341 Z-0.025313
N2058 G1 F100 X1.210282 Y-0.818515 Z-0.025313
N2059 G1 F100 X1.219521 Y-0.814688 Z-0.025625
N2060 G1 F100 X1.228760 Y-0.810861 Z-0.026250
N2061 G1 F100 X1.237999 Y-0.807034 Z-0.026250
N2062 G1 F100 X1.247237 Y-0.803207 Z-0.026875
N2063 G1 F100 X1.256476 Y-0.799380 Z-0.029375
N2064 G1 F100 X1.265715 Y-0.795554 Z-0.031250
N2065 G1 F100 X1.274954 Y-0.791727 Z-0.032188
N2066 G1 F100 X1.284193 Y-0.787900 Z-0.032188
N2067 G1 F100 X1.293431 Y-0.784073 Z-0.031250
N2068 G1 F100 X1.302670 Y-0.780246 Z-0.030312
N2069 G1 F100 X1.311909 Y-0.776419 Z-0.030625
N2070 G1 F100 X1.321148 Y-0.772593 Z-0.030000
N2071 G1 F100 X1.330387 Y-0.768766 Z-0.027813
N2072 G1 F100 X1.339625 Y-0.764939 Z-0.027500
N2073 G1 F100 X1.348864 Y-0.761112 Z-0.026875
N2074 G1 F100 X1.358103 Y-0.757285 Z-0.026562
N2075 G1 F100 X1.367342 Y-0.753458 Z-0.027500
N2076 G1 F100 X1.376581 Y-0.749632 Z-0.029375
N2077 G1 F100 X1.385819 Y-0.745805 Z-0.030312
N2078 G1 F100 X1.395058 Y-0.741978 Z-0.029688
N2079 G1 F100 X1.404297 Y-0.738151 Z-0.030000
N2080 G1 F100 X1.413536 Y-0.734324 Z-0.032188
N2081 G1 F100 X1.422774 Y-0.730497 Z-0.032500
N2082 G1 F100 X1.432013 Y-0.726671 Z-0.033438
N2083 G1 F100 X1.441252 Y-0.722844 Z-0.033438
N2084 G1 F100 X1.450491 Y-0.719017 Z-0.033125
N2085 G1 F100 X1.459730 Y-0.715190 Z-0.033125
N2086 G1 F100 X1.468968 Y-0.711363 Z-0.032813
N2087 G1 F100 X1.478207 Y-0.707536 Z-0.032813
N2088 G1 F100 X1.487446 Y-0.703710 Z-0.032188
N2089 G1 F100 X1.496685 Y-0.699883 Z-0.031563
N2090 G1 F100 X1.505924 Y-0.696056 Z-0.030000
N2091 G1 F100 X1.515162 Y-0.692229 Z-0.029063
N2092 G1 F100 X1.524401 Y-0.688402 Z-0.028125
N2093 G1 F100 X1.533640 Y-0.684575 Z-0.027187
N2094 G1 F100 X1.542879 Y-0.680749 Z-0.025313
N2095 G1 F100 X1.552118 Y-0.676922 Z-0.023438
N2096 G1 F100 X1.561356 Y-0.673095 Z-0.023438
N2097 G1 F100 X1.570595 Y-0.669268 Z-0.023438
N2098 G1 F100 X1.579834 Y-0.665441 Z-0.023438
N2099 G1 F100 X1.589073 Y-0.661614 Z-0.024063
N2100 G1 F100 X1.598312 Y-0.657787 Z-0.024375
N2101 G1 F100 X1.607550 Y-0.653961 Z-0.024688
N2102 G1 F100 X1.616789 Y-0.650134 Z-0.024688
N2103 G1 F100 X1.626028 Y-0.646307 Z-0.024063
N2104 G1 F100 X1.635267 Y-0.642480 Z-0.024063
N2105 G1 F100 X1.644506 Y-0.638653 Z-0.024688
N2106 G1 F100 X1.653744 Y-0.634826 Z-0.024688
N2107 G1 F100 X1.662983 Y-0.631000 Z-0.024375
N2108 G1 F100 X1.672222 Y-0.627173 Z-0.024063
N2109 G1 F100 X1.681461 Y-0.623346 Z-0.023438
N2110 G1 F100 X1.690700 Y-0.619519 Z-0.022812
N2111 G1 F100 X1.699938 Y-0.615692 Z-0.022812
N2112 G1 F100 X1.709177 Y-0.611865 Z-0.023125
N2113 G1 F100 X1.718416 Y-0.608039 Z-0.022812
N2114 G1 F100 X1.727655 Y-0.604212 Z-0.023125
N2115 G1 F100 X1.736894 Y-0.600385 Z-0.023438
N2116 G1 F100 X1.746132 Y-0.596558 Z-0.024375
N2117 G1 F100 X1.755371 Y-0.592731 Z-0.025313
N2118 G1 F100 X1.764610 Y-0.588904 Z-0.026250
N2119 G1 F100 X1.773849 Y-0.585078 Z-0.027813
N2120 G1 F100 X1.783087 Y-0.581251 Z-0.029688
N2121 G1 F100 X1.792326 Y-0.577424 Z-0.031250
N2122 G1 F100 X1.801565 Y-0.573597 Z-0.033125
N2123 G1 F100 X1.810804 Y-0.569770 Z-0.033125
N2124 G1 F100 X1.820043 Y-0.565943 Z-0.033125
N2125 G1 F100 X1.829281 Y-0.562117 Z-0.033438
N2126 G1 F100 X1.838520 Y-0.558290 Z-0.033438
N2127 G1 F100 X1.847759 Y-0.554463 Z-0.033438
N2128 G1 F100 X1.856998 Y-0.550636 Z-0.033438
N2129 G1 F100 X1.866237 Y-0.546809 Z-0.033438
N2130 G1 F100 X1.875475 Y-0.542982 Z-0.033438
N2131 G1 F100 X1.884714 Y-0.539156 Z-0.032813
N2132 G1 F100 X1.893953 Y-0.535329 Z-0.031250
N2133 G1 F100 X1.903192 Y-0.531502 Z-0.030937
N2134 G1 F100 X1.912431 Y-0.527675 Z-0.031250
N2135 G1 F100 X1.921669 Y-0.523848 Z-0.031250
N2136 G1 F100 X1.930908 Y-0.520021 Z-0.030937
N2137 G1 F100 X1.940147 Y-0.516195 Z-0.030937
N2138 G1 F100 X1.949386 Y-0.512368 Z-0.031563
N2139 G1 F100 X1.958625 Y-0.508541 Z-0.031250
N2140 G1 F100 X1.967863 Y-0.504714 Z-0.031250
N2141 G1 F100 X1.977102 Y-0.500887 Z-0.031563
N2142 G1 F100 X1.986341 Y-0.497060 Z-0.031875
N2143 G1 F100 X1.995580 Y-0.493234 Z-0.031875
N2144 G1 F100 X2.004819 Y-0.489407 Z-0.032188
N2145 G1 F100 X2.014057 Y-0.485580 Z-0.032188
N2146 G1 F100 X2.023296 Y-0.481753 Z-0.032500
N2147 G1 F100 X2.032535 Y-0.477926 Z-0.033750
N2148 G1 F100 X2.041774 Y-0.474099 Z-0.034063
N2149 G1 F100 X2.051013 Y-0.470273 Z-0.034375
N2150 G1 F100 X2.060251 Y-0.466446 Z-0.034688
N2151 G1 F100 X2.069490 Y-0.462619 Z-0.034375
N2152 G1 F100 X2.078729 Y-0.458792 Z-0.034375
N2153 G1 F100 X2.087968 Y-0.454965 Z-0.034063
N2154 G1 F100 X2.097207 Y-0.451138 Z-0.034375
N2155 G1 F100 X2.106445 Y-0.447312 Z-0.034375
N2156 G1 F100 X2.115684 Y-0.443485 Z-0.033750
N2157 G1 F100 X2.124923 Y-0.439658 Z-0.034375
N2158 G1 F100 X2.134162 Y-0.435831 Z-0.035000
N2159 G1 F100 X2.143401 Y-0.432004 Z-0.035000
N2160 G1 F100 X2.152639 Y-0.428177 Z-0.034375
N2161 G1 F100 X2.161878 Y-0.424351 Z-0.033750
N2162 G1 F100 X2.171117 Y-0.420524 Z-0.033125
N2163 G1 F100 X2.180356 Y-0.416697 Z-0.033438
N2164 G1 F100 X2.189594 Y-0.412870 Z-0.033438
N2165 G1 F100 X2.198833 Y-0.409043 Z-0.033750
N2166 G1 F100 X2.208072 Y-0.405216 Z-0.033438
N2167 G1 F100 X2.217311 Y-0.401390 Z-0.033438
N2168 G1 F100 X2.226550 Y-0.397563 Z-0.033125
N2169 G1 F100 X2.235788 Y-0.393736 Z-0.032813
N2170 G1 F100 X2.245027 Y-0.389909 Z-0.032500
N2171 G1 F100 X2.254266 Y-0.386082 Z-0.032188
N2172 G1 F100 X2.263505 Y-0.382255 Z-0.032188
N2173 G1 F100 X2.272744 Y-0.378429 Z-0.032500
N2174 G1 F100 X2.281982 Y-0.374602 Z-0.032813
N2175 G1 F100 X2.291221 Y-0.370775 Z-0.032813
N2176 G1 F100 X2.300460 Y-0.366948 Z-0.032188
N2177 G1 F100 X2.309699 Y-0.363121 Z-0.031875
N2178 G1 F100 X2.318938 Y-0.359294 Z-0.031875
N2179 G1 F100 X2.328176 Y-0.355468 Z-0.032188
N2180 G1 F100 X2.337415 Y-0.351641 Z-0.032188
N2181 G1 F100 X2.346654 Y-0.347814 Z-0.031250
N2182 G1 F100 X2.355893 Y-0.343987 Z-0.031250
N2183 G1 F100 X2.365132 Y-0.340160 Z-0.031563
N2184 G1 F100 X2.374370 Y-0.336333 Z-0.032188
N2185 G1 F100 X2.383609 Y-0.332507 Z-0.032813
N2186 G1 F100 X2.392848 Y-0.328680 Z-0.033750
N2187 G1 F100 X2.402087 Y-0.324853 Z-0.034375
N2188 G1 F100 X2.411326 Y-0.321026 Z-0.034375
N2189 G1 F100 X2.420564 Y-0.317199 Z-0.035625
N2190 G1 F100 X2.429803 Y-0.313372 Z-0.037187
N2191 G1 F100 X2.439042 Y-0.309546 Z-0.037812
N2192 G1 F100 X2.448281 Y-0.305719 Z-0.039375
N2193 G1 F100 X2.457520 Y-0.301892 Z-0.040000
N2194 G1 F100 X2.466758 Y-0.298065 Z-0.041563
N2195 G1 F100 X2.475997 Y-0.294238 Z-0.043125
N2196 G1 F100 X2.485236 Y-0.290411 Z-0.044375
N2197 G1 F100 X2.494475 Y-0.286585 Z-0.045625
N2198 G1 F100 X2.503714 Y-0.282758 Z-0.045312
N2199 G1 F100 X2.512952 Y-0.278931 Z-0.049375
N2200 G1 F100 X2.522191 Y-0.275104 Z-0.050313
N2201 G1 F100 X2.531430 Y-0.271277 Z-0.051250
N2202 G1 F100 X2.540669 Y-0.267450 Z-0.054062
N2203 G1 F100 X2.549908 Y-0.263624 Z-0.055625
N2204 G1 F100 X2.559146 Y-0.259797 Z-0.055313
N2205 G1 F100 X2.568385 Y-0.255970 Z-0.055313
N2206 G1 F100 X2.577624 Y-0.252143 Z-0.055313
N2207 G1 F100 X2.586863 Y-0.248316 Z-0.055625
